<?xml version="1.0" encoding="UTF-8"?>
<map version="1.10" tiledversion="1.12.2" orientation="orthogonal" renderorder="right-down" width="70" height="40" tilewidth="12" tileheight="12" infinite="0" nextlayerid="17" nextobjectid="1">
 <tileset firstgid="1" source="pokemon style game.tsx"/>
 <tileset firstgid="1025" source="CollisionTileset.tsx"/>
 <layer id="1" name="water" width="70" height="40">
  <data encoding="csv">
441,505,439,473,504,440,471,440,505,503,471,441,505,503,439,440,503,440,505,441,505,441,472,505,441,472,440,504,471,439,439,504,471,471,503,471,439,503,441,440,440,472,472,439,439,505,504,441,472,505,505,441,503,472,505,504,439,473,440,505,503,472,471,505,439,472,440,505,504,505,
471,504,473,505,441,472,505,503,471,441,472,472,504,505,440,503,505,440,472,439,504,504,505,441,472,504,505,439,473,503,440,504,441,441,472,505,439,440,504,505,471,439,503,505,503,473,441,504,441,440,472,439,504,472,505,440,440,503,471,505,472,472,505,441,504,440,472,471,439,440,
441,505,471,504,504,441,439,471,503,505,473,505,504,441,503,503,503,505,472,471,473,441,471,503,440,471,439,503,504,472,471,440,441,473,504,441,440,505,473,441,440,441,440,472,471,504,439,504,441,505,471,439,441,440,503,473,473,439,473,472,441,473,473,440,471,472,473,439,504,505,
439,441,439,472,471,440,472,439,505,472,473,473,472,439,439,440,441,472,505,441,504,472,503,439,472,472,439,473,505,504,473,439,473,505,504,504,439,471,471,503,440,471,441,505,504,441,473,439,503,473,503,473,472,471,473,473,472,440,439,471,441,504,503,472,472,504,505,439,439,503,
441,472,503,473,439,473,440,472,471,505,439,440,439,439,439,503,439,440,440,439,440,505,471,473,503,504,439,471,440,471,472,471,504,441,441,472,440,472,472,441,440,503,473,439,440,473,441,503,504,472,441,504,471,471,471,473,472,441,505,440,440,441,439,471,471,441,472,439,439,504,
473,472,472,440,504,473,473,471,473,503,440,473,504,471,504,440,504,503,504,503,504,505,439,472,441,503,441,503,440,471,472,503,504,439,503,503,504,441,440,441,504,472,439,472,441,473,504,441,505,504,439,439,504,504,440,440,439,504,440,473,505,473,473,504,505,471,504,504,504,505,
440,505,441,503,505,505,505,472,503,503,441,504,441,441,472,471,472,473,471,473,441,505,504,471,503,505,439,503,471,504,440,471,439,472,471,503,504,505,471,439,441,472,473,439,504,504,472,471,504,441,473,504,440,505,472,504,440,441,439,472,441,441,504,441,504,505,505,440,439,505,
473,473,473,503,439,471,473,505,505,505,504,473,505,505,471,504,471,439,472,471,473,473,504,503,439,441,439,503,503,504,473,440,439,504,473,505,439,439,473,439,473,440,472,473,439,439,505,440,503,503,473,440,439,504,473,505,473,439,440,440,439,503,472,504,441,441,505,471,473,473,
473,505,471,505,471,473,503,473,503,505,503,471,440,503,473,473,503,504,504,471,471,439,503,471,472,473,471,473,439,441,503,441,473,504,441,441,440,440,473,503,504,504,503,505,503,439,472,471,441,503,441,505,441,439,504,441,505,504,471,439,440,505,505,471,473,441,504,504,441,503,
505,472,440,472,503,471,439,440,440,440,503,503,471,439,473,441,441,505,471,503,505,504,440,439,471,471,504,505,439,504,504,440,504,473,504,472,440,441,472,471,504,440,503,473,441,473,471,503,473,503,504,471,440,441,440,439,471,472,471,472,473,441,471,472,441,439,505,471,473,472,
440,472,439,503,505,439,471,440,505,441,504,505,472,504,471,440,504,505,505,471,441,504,471,504,473,439,473,439,471,471,441,505,441,440,505,439,503,473,504,440,441,440,473,440,473,441,471,503,439,471,505,473,440,439,505,505,473,504,471,505,473,473,505,503,505,505,505,439,471,473,
503,439,441,504,439,439,473,439,441,472,505,440,472,441,503,472,503,504,439,503,471,503,504,472,472,505,503,505,503,504,504,503,504,471,472,471,505,439,472,439,505,505,440,472,439,440,472,473,439,473,440,441,440,471,505,440,473,505,472,472,504,439,471,505,505,473,504,505,440,504,
439,505,471,472,503,472,472,439,472,503,439,503,472,504,505,504,473,471,472,473,471,473,439,439,473,439,504,471,473,472,473,439,439,473,441,471,439,472,441,471,504,472,439,440,503,503,472,441,505,473,440,439,471,504,472,503,503,504,439,503,505,439,503,472,440,505,505,473,505,472,
440,473,504,473,439,503,504,473,503,471,504,439,505,503,503,471,440,504,505,439,471,473,472,504,471,439,473,472,441,440,471,503,441,505,503,439,504,504,473,439,473,439,441,473,472,505,472,439,505,439,441,471,505,440,439,503,440,503,472,440,439,441,503,441,471,441,440,503,504,472,
471,440,441,441,471,473,505,505,472,471,472,473,441,473,440,473,473,505,472,473,505,439,503,471,441,471,441,472,473,471,440,440,473,441,505,441,439,471,503,503,472,472,439,472,473,439,503,473,504,471,440,472,439,504,504,503,505,473,503,471,439,472,472,471,472,441,473,504,440,440,
441,440,441,504,472,471,439,473,503,505,441,439,505,505,441,439,439,472,440,504,504,473,505,441,441,472,504,472,441,473,505,441,441,472,440,505,503,440,471,504,473,441,472,439,441,473,473,441,503,503,439,505,471,472,440,505,504,472,505,503,472,472,505,505,504,439,505,504,441,472,
503,505,441,473,473,473,441,472,473,472,441,504,440,473,503,439,439,439,472,440,505,440,440,503,440,472,504,505,471,473,440,504,471,505,472,503,473,473,503,505,504,471,473,472,439,471,440,473,472,504,504,441,505,439,440,471,473,441,472,471,441,504,439,439,440,440,439,473,504,504,
505,441,473,441,440,439,505,440,439,503,440,439,439,472,439,472,440,439,439,504,440,439,504,503,441,472,440,441,472,440,440,439,504,473,440,440,472,472,441,473,504,439,504,440,471,472,472,503,503,441,472,473,471,504,471,439,441,472,471,471,439,439,472,503,503,504,472,504,472,504,
472,503,471,441,504,504,471,439,505,471,473,440,471,439,503,472,473,471,472,471,441,441,440,472,504,439,473,471,471,473,440,472,504,503,503,505,473,505,472,503,440,441,440,439,472,471,440,472,471,439,504,471,503,505,505,505,505,505,439,439,441,503,441,441,505,472,472,471,471,503,
439,504,440,440,440,504,441,472,439,472,472,504,439,473,471,441,504,472,503,439,439,441,472,472,505,503,439,505,473,505,440,504,473,471,441,505,473,504,473,439,439,504,472,473,439,471,505,473,473,440,471,503,441,504,503,439,472,441,505,503,471,441,439,440,505,471,473,440,472,473,
503,471,440,471,503,471,504,473,441,504,472,441,440,440,439,440,441,472,439,471,471,503,473,472,505,440,505,440,472,471,504,471,472,473,439,441,440,439,441,473,471,441,439,503,440,504,473,439,439,473,440,505,472,505,504,441,441,440,471,504,503,441,440,441,503,472,472,440,441,471,
505,503,472,441,473,472,471,472,504,472,473,504,471,439,504,439,504,473,472,505,473,472,503,441,503,504,471,441,503,504,439,440,471,441,504,505,505,505,440,471,503,472,503,441,472,472,471,504,503,504,472,473,440,472,471,473,439,505,473,473,504,441,440,441,503,471,472,472,504,472,
472,472,440,505,505,439,503,441,503,505,473,439,473,473,503,471,441,504,471,503,472,439,471,505,473,440,505,439,440,505,439,439,439,472,473,471,505,440,440,503,472,472,441,441,473,503,504,471,440,471,441,440,440,439,439,505,440,439,504,504,439,441,472,439,504,505,503,473,504,439,
471,440,473,440,471,473,440,441,441,439,471,441,439,505,439,503,472,439,441,473,472,504,503,439,441,472,439,504,472,503,439,504,505,505,505,503,440,473,471,471,504,473,471,505,473,505,471,440,472,505,473,504,471,439,473,471,505,503,440,471,441,472,473,504,439,473,471,439,471,503,
439,473,503,473,441,472,503,504,441,439,505,473,473,439,441,472,473,503,439,472,472,440,473,441,441,473,439,471,439,473,440,440,505,440,439,504,472,504,439,439,473,441,471,505,504,439,471,471,441,471,472,471,439,473,471,472,473,439,440,441,505,471,440,440,473,472,471,472,471,471,
504,472,473,503,503,503,503,472,441,473,439,473,473,471,441,439,472,472,440,473,472,505,440,503,505,504,439,503,471,503,505,441,440,473,471,472,505,471,504,505,441,505,440,472,503,471,439,439,472,472,503,503,503,504,441,441,504,503,504,473,440,439,441,471,440,472,504,441,471,471,
439,472,472,504,473,503,473,503,503,439,504,439,439,505,505,505,439,505,503,504,472,472,441,440,504,504,503,472,503,473,505,471,472,441,441,504,505,505,441,441,439,439,503,441,439,471,504,473,441,471,505,441,440,439,503,505,505,441,472,441,472,471,471,472,439,440,473,471,472,504,
472,503,504,472,505,471,440,439,503,473,440,471,440,472,472,472,472,472,472,472,472,471,472,440,441,503,473,503,471,473,505,471,505,503,439,471,439,440,504,504,505,471,471,471,472,503,503,441,439,505,472,439,440,473,439,439,473,471,505,503,503,441,503,505,440,439,472,440,471,503,
471,503,503,472,439,473,439,473,505,441,472,505,471,471,505,473,439,503,440,471,503,472,473,440,473,439,503,503,473,440,439,472,505,473,471,441,504,472,441,439,441,504,440,503,440,440,505,503,471,472,471,473,473,471,504,440,440,440,472,471,472,504,504,503,440,503,440,504,503,472,
471,473,505,503,471,472,504,471,441,472,504,505,439,503,439,473,439,439,439,439,441,505,472,473,440,473,505,505,471,472,440,439,503,471,439,505,505,439,439,505,472,439,505,439,505,440,504,505,473,441,473,505,472,471,472,441,441,503,441,503,473,473,472,504,441,441,440,505,439,505,
440,505,440,471,504,473,505,473,473,472,472,471,472,440,441,503,439,503,504,505,0,473,0,505,472,473,505,472,505,440,439,441,440,504,441,472,471,472,473,441,439,505,471,504,441,504,472,472,440,440,503,473,440,471,441,504,505,473,503,439,503,504,471,505,503,472,505,503,504,472,
504,472,439,505,439,473,473,473,473,504,503,471,503,441,505,504,472,504,505,472,503,505,471,441,504,472,504,471,473,441,439,504,441,441,439,505,503,504,503,439,473,441,440,471,440,471,504,471,473,440,504,503,505,439,473,472,471,503,439,440,504,505,473,505,505,473,440,472,471,439,
471,504,473,473,472,440,472,471,473,440,439,472,473,440,471,505,471,504,471,441,472,471,505,473,505,441,471,505,441,471,439,439,504,439,473,504,505,503,472,440,441,439,504,473,505,473,441,472,440,505,473,473,504,439,471,472,473,473,505,440,440,503,441,473,441,503,503,472,472,505,
504,440,503,505,473,472,503,505,504,439,473,471,503,439,441,441,473,505,473,505,472,471,472,439,472,441,473,439,439,503,472,441,503,440,440,472,471,472,440,441,472,439,504,440,441,503,471,505,503,505,472,473,473,441,505,503,503,503,504,472,471,473,441,503,505,505,441,473,473,472,
441,503,503,503,472,505,503,472,471,441,439,472,472,472,441,503,503,472,441,505,473,504,503,439,439,441,441,472,504,505,439,472,471,503,504,504,505,471,473,441,473,504,503,439,439,441,471,439,503,439,505,504,473,504,441,439,473,471,441,473,471,472,441,439,504,439,503,505,503,505,
472,472,473,439,473,473,505,503,504,505,505,439,440,439,505,504,504,471,473,504,503,472,505,439,440,441,440,471,473,504,503,440,472,471,472,472,440,505,471,504,439,473,471,471,473,472,440,472,505,473,473,472,472,441,441,504,503,503,471,439,471,473,471,439,505,441,504,504,440,440,
439,503,439,439,505,472,439,440,472,440,472,471,440,473,505,441,440,472,440,505,473,504,471,473,471,504,503,441,441,473,439,472,471,439,504,440,439,503,473,504,471,439,503,440,439,503,472,504,503,439,505,505,505,471,473,473,471,471,471,471,441,471,472,441,473,473,504,504,504,505,
472,473,471,471,439,503,440,473,439,504,503,471,471,505,504,471,472,472,440,472,471,471,472,504,503,472,440,472,503,440,472,441,439,504,473,505,441,472,471,440,472,504,503,503,505,471,472,505,441,439,439,471,505,504,441,441,471,440,441,504,441,471,440,472,471,503,471,504,440,441,
505,472,439,441,505,440,439,441,504,441,472,441,440,505,440,439,473,473,504,471,471,504,471,504,441,439,439,439,503,471,440,472,471,440,441,441,472,473,471,505,440,504,503,505,505,505,439,471,505,504,472,473,441,503,505,504,473,473,472,503,439,504,503,439,473,441,505,504,439,439,
441,503,505,441,504,440,440,504,503,441,441,439,439,504,441,441,439,472,504,440,504,440,471,472,473,504,471,504,439,505,504,505,473,471,472,439,441,505,471,441,473,471,472,505,472,473,473,439,471,473,505,473,473,503,472,471,473,440,503,441,439,503,473,440,440,503,473,471,473,503
</data>
 </layer>
 <layer id="3" name="island" width="70" height="40">
  <data encoding="csv">
2684355211,2684355211,2684355211,2684355211,0,0,0,0,0,0,340,340,340,340,340,340,340,340,340,340,340,340,340,340,340,340,2684355211,2684355211,2684355211,2684355211,2684355211,340,340,340,340,340,340,340,340,467,436,437,467,501,469,499,437,2684355211,2684355211,2684355211,2684355211,2684355211,2684355211,2684355211,591,591,2684355211,2684355211,2684355211,2684355211,2684355211,2684355211,212,212,2684355211,2684355211,340,2684355211,2684355211,2684355211,
2684355211,2684355211,2684355211,0,0,0,0,0,0,0,340,340,340,340,340,340,340,340,340,340,340,340,340,340,340,340,2684355211,340,340,340,2684355211,2684355211,2684355211,2684355211,2684355211,2684355211,2684355211,2684355211,2684355211,181,436,467,500,436,467,501,179,2684355211,2684355211,2684355211,2684355211,2684355211,2684355211,2684355211,620,620,620,620,2684355211,2684355211,2684355211,2684355211,212,212,2684355211,2684355211,2684355211,2684355211,2684355211,2684355211,
2684355211,2684355211,0,0,0,0,0,2684355211,2684355211,2684355211,2684355211,2684355211,2684355211,2684355211,2684355211,2684355211,2684355211,2684355211,2684355211,2684355211,2684355211,2684355211,2684355211,2684355211,2684355211,2684355211,2684355211,2684355211,2684355211,2684355211,2684355211,2684355211,2684355211,2684355211,2684355211,2684355211,2684355211,2684355211,2684355211,213,500,469,468,468,468,469,211,2684355211,2684355211,2684355211,2684355211,695,695,695,620,620,620,620,620,620,620,631,631,631,2684355211,2684355211,2684355211,2684355211,2684355211,2684355211,
2684355211,0,0,0,0,0,2684355211,2684355211,2684355211,2684355211,2684355211,2684355211,2684355211,2684355211,2684355211,2684355211,2684355211,2684355211,2684355211,2684355211,2684355211,2684355211,2684355211,2684355211,2684355211,2684355211,2684355211,2684355211,2684355211,2684355211,2684355211,563,564,565,566,567,2684355211,627,620,2684355211,181,467,468,501,181,499,211,2684355211,2684355211,2684355211,2684355211,591,591,695,620,620,620,620,620,620,620,620,620,2684355211,2684355211,2684355211,2684355211,2684355211,2684355211,340,
2684355211,0,0,0,0,0,2684355211,2684355211,2684355211,2684355211,2684355211,2684355211,2684355211,2684355211,2684355211,2684355211,2684355211,2684355211,2684355211,2684355211,2684355211,2684355211,2684355211,2684355211,2684355211,2684355211,2684355211,2684355211,2684355211,2684355211,2684355211,595,596,597,598,599,2684355211,695,2684355211,2684355211,213,501,435,179,213,499,499,211,2684355211,2684355211,2684355211,2684355211,631,695,620,620,620,620,620,620,620,620,631,2684355211,2684355211,2684355211,2684355211,2684355211,2684355211,340,
0,0,0,0,0,2684355211,2684355211,2684355211,2684355211,2684355211,2684355211,2684355211,2684355211,2684355211,2684355211,2684355211,2684355211,2684355211,2684355211,2684355211,2684355211,2684355211,2684355211,2684355211,2684355211,2684355211,2684355211,2684355211,2684355211,2684355211,2684355211,627,628,629,630,631,695,631,2684355211,2684355211,245,468,211,2684355211,2684355211,213,435,436,244,2684355211,2684355211,2684355211,591,631,620,620,620,620,620,620,620,624,2684355211,2684355211,2684355211,2684355211,2684355211,2684355211,340,340,
0,0,0,0,2684355211,2684355211,2684355211,2684355211,2684355211,2684355211,2684355211,2684355211,2684355211,2684355211,2684355211,2684355211,2684355211,2684355211,2684355211,2684355211,2684355211,2684355211,2684355211,2684355211,2684355211,2684355211,244,244,2684355211,2684355211,2684355211,659,660,661,662,695,371,373,2684355211,213,437,501,211,2684355211,2684355211,212,213,468,499,244,244,244,695,624,631,620,620,620,620,620,620,620,2684355211,2684355211,2684355211,2684355211,2684355211,2684355211,340,340,
0,0,0,2684355211,2684355211,2684355211,2684355211,2684355211,2684355211,2684355211,2684355211,2684355211,2684355211,2684355211,2684355211,2684355211,2684355211,2684355211,2684355211,2684355211,244,244,244,244,244,245,468,501,243,2684355211,2684355211,691,692,693,694,695,616,616,2684355211,213,468,211,2684355211,616,2684355211,2684355211,2684355211,181,437,468,499,436,243,244,631,620,620,620,620,620,695,624,2684355211,2684355211,2684355211,2684355211,2684355211,2684355211,617,909,
0,0,2684355211,2684355211,2684355211,2684355211,2684355211,2684355211,2684355211,2684355211,2684355211,2684355211,2684355211,2684355211,2684355211,2684355211,2684355211,244,244,245,467,500,469,468,436,500,467,499,437,244,212,2684355211,2684355211,2684355211,695,695,2684355211,620,2684355211,245,467,211,2684355211,564,565,565,565,565,565,565,566,469,501,468,211,244,2684355211,2684355211,620,695,2684355211,2684355211,2684355211,2684355211,2684355211,2684355211,2684355211,2684355211,909,0,
2684355211,340,2684355211,2684355211,2684355211,2684355211,2684355211,2684355211,2684355211,2684355211,2684355211,340,2684355211,2684355211,2684355211,244,245,469,469,469,437,179,180,180,180,181,501,501,501,468,243,244,2684355211,2684355211,2684355211,2684355211,2684355211,651,245,499,179,651,651,596,0,0,651,651,0,0,598,213,501,469,435,469,243,651,695,591,2684355211,2684355211,2684355211,2684355211,2684355211,2684355211,2684355211,909,0,0,
2684355211,340,2684355211,2684355211,2684355211,2684355211,2684355211,245,245,244,244,244,244,244,245,437,467,436,180,180,180,2684355211,2684355211,2684355211,2684355211,245,436,180,180,501,499,467,244,244,2684355211,2684355211,2684355211,244,435,436,211,651,591,634,591,695,591,651,651,0,668,651,180,213,468,437,437,243,244,2684355211,2684355211,2684355211,2684355211,2684355211,2684355211,2684355211,1610613391,1610613423,0,0,
2684355211,340,2684355211,2684355211,2684355211,2684355211,2684355211,213,501,500,468,436,436,500,436,499,180,248,2684355211,2684355211,2684355211,2684355211,2684355211,2684355211,213,436,436,2684355211,2684355211,180,180,436,469,469,244,2684355211,244,501,499,179,651,651,631,628,631,591,695,651,651,0,668,651,651,651,181,437,499,468,499,211,2684355211,2684355211,2684355211,2684355211,2684355211,2684355211,1610613390,1610613422,0,0,
2684355211,340,2684355211,2684355211,117,84,115,213,468,500,179,248,248,248,248,248,2684355211,212,2684355211,2684355211,2684355211,2684355211,2684355211,2684355211,245,469,180,2684355211,2684355211,2684355211,2684355211,180,180,469,435,244,435,435,468,211,651,651,651,666,631,591,695,651,651,0,668,651,651,651,651,651,651,181,499,243,244,244,244,2684355211,2684355211,2684355211,2684355211,657,0,0,
2684355211,340,2684355211,2684355211,651,651,83,2684355211,180,180,2684355211,2684355211,2684355211,2684355211,2684355211,2684355211,2684355211,2684355211,2684355211,2684355211,2684355211,2684355211,2684355211,213,467,469,211,2684355211,2684355211,2684355211,2684355211,2684355211,2684355211,181,435,435,437,501,179,651,651,651,651,628,624,695,695,651,651,651,668,651,651,651,651,651,213,437,501,501,469,435,467,243,2684355211,2684355211,2684355211,657,0,0,
2684355211,340,2684355211,2684355211,52,117,651,2684355211,2684355211,2684355211,2684355211,2684355211,2684355211,2684355211,2684355211,2684355211,2684355211,2684355211,2684355211,2684355211,2684355211,2684355211,2684355211,245,501,211,2684355211,2684355211,2684355211,2684355211,2684355211,2684355211,2684355211,2684355211,180,180,467,435,501,211,244,212,212,660,0,651,651,651,651,0,668,651,651,651,651,651,651,180,180,180,180,213,436,437,244,244,2684355211,593,0,0,
2684355211,340,2684355211,51,52,117,2684355211,2684355211,2684355211,2684355211,2684355211,2684355211,2684355211,2684355211,2684355211,2684355211,2684355211,0,2684355211,2684355211,2684355211,2684355211,245,436,467,211,2684355211,2684355211,2684355211,2684355211,2684355211,2684355211,2684355211,2684355211,2684355211,2684355211,180,181,437,435,469,243,244,244,244,715,243,245,715,661,662,651,651,651,84,84,84,651,2684355211,2684355211,2684355211,2684355211,181,499,435,468,435,468,0,0,
2684355211,340,2684355211,117,117,51,2684355211,2684355211,2684355211,2684355211,2684355211,2684355211,2684355211,2684355211,2684355211,2684355211,2684355211,616,2684355211,2684355211,2684355211,213,500,211,2684355211,2684355211,2684355211,2684355211,2684355211,2684355211,2684355211,2684355211,2684355211,2684355211,2684355211,2684355211,2684355211,651,213,468,499,437,437,469,469,436,500,435,500,468,468,211,651,84,84,84,84,84,2684355211,2684355211,2684355211,2684355211,213,435,467,467,501,657,0,0,
2684355211,340,2684355211,52,83,53,808,839,807,651,651,651,582,651,651,651,651,616,618,618,84,2684355211,467,211,2684355211,2684355211,2684355211,2684355211,2684355211,2684355211,2684355211,2684355211,2684355211,2684355211,2684355211,2684355211,2684355211,213,468,468,469,437,179,180,180,180,180,180,180,181,469,211,651,84,84,84,84,84,2684355211,2684355211,2684355211,2684355211,2684355211,180,180,180,841,625,0,0,
2684355211,340,2684355211,84,85,116,808,848,872,651,651,582,582,582,651,651,340,616,651,651,2684355211,2684355211,2684355211,211,2684355211,2684355211,2684355211,2684355211,2684355211,2684355211,2684355211,2684355211,2684355211,2684355211,2684355211,2684355211,2684355211,245,469,436,436,179,651,651,651,651,651,651,651,213,436,243,651,84,84,84,84,651,2684355211,2684355211,2684355211,2684355211,2684355211,2684355211,841,841,841,666,0,0,
2684355211,340,2684355211,83,52,116,808,848,835,651,582,582,873,873,308,308,873,873,651,651,2684355211,2684355211,469,243,2684355211,2684355211,2684355211,2684355211,2684355211,2684355211,2684355211,212,212,2684355211,2684355211,2684355211,2684355211,437,469,501,179,651,651,651,651,651,651,651,651,213,435,437,211,651,651,651,651,651,2684355211,2684355211,2684355211,2684355211,2684355211,2684355211,841,841,841,666,0,0,
2684355211,340,2684355211,116,651,2684355211,808,848,835,582,582,582,582,582,243,245,841,841,841,244,2684355211,467,469,436,211,2684355211,2684355211,2684355211,2684355211,2684355211,2684355211,2684355211,212,2684355211,244,244,245,467,179,180,651,651,651,651,651,651,651,651,651,651,181,467,211,651,651,651,651,651,2684355211,2684355211,2684355211,2684355211,2684355211,841,841,841,841,666,0,0,
2684355211,340,2684355211,2684355211,2684355211,2684355211,808,848,835,615,582,84,84,181,467,501,436,436,245,436,435,435,467,211,2684355211,2684355211,2684355211,2684355211,2684355211,2684355211,2684355211,2684355211,2684355211,2684355211,469,469,435,437,211,651,651,651,651,651,651,651,651,651,651,651,213,500,243,651,651,651,651,651,2684355211,2684355211,2684355211,2684355211,841,841,841,841,841,666,0,0,
2684355211,340,2684355211,2684355211,2684355211,2684355211,808,848,813,808,808,84,837,53,213,436,436,436,436,436,435,435,501,211,2684355211,2684355211,2684355211,2684355211,2684355211,2684355211,2684355211,2684355211,2684355211,245,499,435,469,179,651,651,651,651,651,651,651,651,651,651,651,651,213,469,435,211,651,651,651,651,2684355211,2684355211,2684355211,2684355211,2684355211,841,841,841,2684355211,666,0,0,
2684355211,340,2684355211,2684355211,2684355211,2684355211,808,580,808,808,808,877,621,245,436,436,179,180,180,436,179,180,180,2684355211,2684355211,2684355211,2684355211,2684355211,2684355211,2684355211,2684355211,2684355211,245,500,467,179,180,651,651,651,651,651,651,651,651,651,651,244,244,244,244,181,468,211,651,651,651,651,2684355211,2684355211,2684355211,2684355211,2684355211,2684355211,2684355211,2684355211,2684355211,634,0,0,
2684355211,340,2684355211,2684355211,2684355211,2684355211,808,808,808,647,873,878,878,436,436,436,905,906,872,730,2684355211,2684355211,2684355211,2684355211,2684355211,2684355211,2684355211,2684355211,2684355211,2684355211,2684355211,245,435,436,179,2684355211,2684355211,651,651,651,651,651,651,651,651,244,245,437,435,469,436,244,501,211,651,651,651,651,2684355211,2684355211,2684355211,2684355211,2684355211,2684355211,2684355211,2684355211,2684355211,666,0,0,
2684355211,340,2684355211,2684355211,2684355211,2684355211,808,808,808,808,808,808,808,181,436,436,666,366,904,730,2684355211,2684355211,2684355211,2684355211,2684355211,2684355211,2684355211,2684355211,2684355211,2684355211,2684355211,500,436,179,2684355211,2684355211,2684355211,651,651,651,651,651,651,651,213,437,469,468,467,468,469,437,435,211,651,651,651,651,2684355211,2684355211,2684355211,2684355211,2684355211,2684355211,2684355211,2684355211,2684355211,666,0,0,
651,340,651,651,651,2684355211,2684355211,2684355211,2684355211,2684355211,2684355211,2684355211,213,436,499,501,569,698,307,730,2684355211,2684355211,2684355211,2684355211,2684355211,2684355211,2684355211,2684355211,2684355211,244,245,499,179,2684355211,2684355211,2684355211,2684355211,651,651,651,651,651,651,651,245,435,467,469,468,437,180,213,469,243,651,651,651,651,2684355211,2684355211,2684355211,2684355211,2684355211,2684355211,2684355211,2684355211,2684355211,666,0,0,
651,340,651,651,651,2684355211,2684355211,2684355211,2684355211,2684355211,2684355211,2684355211,2684355211,245,436,437,2684355211,2684355211,88,2684355211,2684355211,2684355211,2684355211,2684355211,2684355211,2684355211,2684355211,2684355211,245,500,500,501,243,651,651,651,651,651,651,651,651,651,651,245,468,468,469,180,180,180,651,213,469,467,211,651,651,651,2684355211,2684355211,2684355211,2684355211,2684355211,2684355211,2684355211,2684355211,2684355211,666,0,0,
651,340,651,651,651,2684355211,2684355211,2684355211,2684355211,2684355211,2684355211,2684355211,2684355211,181,437,467,469,500,88,88,2684355211,2684355211,2684355211,88,88,88,88,88,435,435,179,180,651,651,651,651,651,651,651,651,651,651,213,437,436,500,179,651,651,651,651,651,213,501,211,651,651,651,2684355211,2684355211,2684355211,2684355211,2684355211,2684355211,2684355211,2684355211,2684355211,698,0,0,
651,340,651,651,651,2684355211,2684355211,2684355211,2684355211,2684355211,2684355211,2684355211,245,499,435,469,436,435,499,88,468,435,88,437,437,500,2684355211,2684355211,469,179,2684355211,651,651,651,651,651,651,651,651,651,651,651,245,501,179,180,651,651,651,651,651,651,651,468,211,651,651,651,2684355211,2684355211,2684355211,2684355211,2684355211,2684355211,2684355211,2684355211,2684355211,729,698,0,
651,340,651,651,651,2684355211,2684355211,2684355211,2684355211,2684355211,2684355211,245,468,468,437,469,179,181,467,467,437,469,469,499,499,499,2684355211,2684355211,468,243,244,651,648,648,648,565,565,651,651,651,651,245,500,437,211,651,651,651,651,651,651,651,213,499,243,651,651,651,2684355211,2684355211,2684355211,2684355211,2684355211,2684355211,2684355211,2684355211,2684355211,2684355211,729,698,
597,598,651,651,651,2684355211,2684355211,2684355211,2684355211,244,245,436,468,435,467,179,2684355211,2684355211,180,180,180,181,501,179,180,180,180,181,468,468,180,596,0,0,335,336,610,651,651,651,213,437,500,179,651,651,651,651,651,651,651,651,213,436,435,211,651,651,2684355211,2684355211,2684355211,2684355211,2684355211,2684355211,2684355211,2684355211,2684355211,2684355211,729,729,
0,662,651,651,651,2684355211,2684355211,2684355211,213,435,499,468,499,500,468,211,2684355211,2684355211,2684355211,2684355211,2684355211,2684355211,2684355211,2684355211,2684355211,2684355211,2684355211,2684355211,181,468,2684355211,0,0,0,367,368,0,682,651,651,213,467,500,243,651,651,651,651,651,651,651,651,651,181,435,211,243,245,245,245,2684355211,2684355211,2684355211,2684355211,2684355211,2684355211,2684355211,2684355211,2684355211,2684355211,
1610613397,694,651,651,651,2684355211,2684355211,2684355211,245,467,500,468,436,500,468,211,2684355211,2684355211,2684355211,2684355211,2684355211,2684355211,2684355211,2684355211,2684355211,2684355211,2684355211,2684355211,2684355211,181,2684355211,0,0,0,0,0,0,610,651,651,213,499,500,501,211,651,651,651,651,651,651,651,651,651,499,467,499,501,469,468,243,2684355211,2684355211,2684355211,2684355211,2684355211,2684355211,2684355211,2684355211,2684355211,
668,2684355211,2684355211,2684355211,2684355211,2684355211,2684355211,213,499,500,500,501,501,468,179,2684355211,2684355211,2684355211,2684355211,2684355211,2684355211,2684355211,2684355211,2684355211,2684355211,2684355211,2684355211,2684355211,2684355211,2684355211,698,0,0,0,0,366,335,336,604,651,651,181,500,501,211,651,651,651,651,651,651,651,651,651,180,180,180,180,180,180,2684355211,2684355211,2684355211,2684355211,2684355211,2684355211,2684355211,2684355211,2684355211,2684355211,
668,2684355211,2684355211,2684355211,2684355211,2684355211,2684355211,213,469,501,469,501,468,180,2684355211,2684355211,2684355211,2684355211,2684355211,2684355211,2684355211,2684355211,2684355211,2684355211,2684355211,2684355211,2684355211,2684355211,2684355211,2684355211,695,698,0,0,0,0,367,368,549,651,651,651,180,180,651,651,651,651,651,651,84,84,84,84,84,651,651,651,2684355211,2684355211,2684355211,2684355211,2684355211,2684355211,2684355211,2684355211,2684355211,2684355211,2684355211,2684355211,
668,2684355211,2684355211,2684355211,2684355211,2684355211,2684355211,213,468,436,437,179,180,2684355211,2684355211,2684355211,2684355211,2684355211,2684355211,2684355211,2684355211,2684355211,2684355211,2684355211,2684355211,2684355211,2684355211,2684355211,2684355211,2684355211,2684355211,651,698,699,699,557,0,578,651,651,651,651,651,651,651,651,651,651,651,651,84,84,84,84,84,84,84,651,2684355211,2684355211,2684355211,2684355211,2684355211,2684355211,2684355211,2684355211,2684355211,2684355211,2684355211,2684355211,
636,2684355211,2684355211,2684355211,2684355211,2684355211,2684355211,213,180,180,180,2684355211,2684355211,2684355211,2684355211,2684355211,2684355211,2684355211,2684355211,2684355211,2684355211,2684355211,2684355211,2684355211,2684355211,2684355211,2684355211,2684355211,2684355211,2684355211,2684355211,651,651,838,839,651,551,549,651,651,651,564,566,651,651,651,651,651,651,651,84,84,84,84,84,84,84,84,2684355211,2684355211,2684355211,2684355211,2684355211,2684355211,2684355211,2684355211,2684355211,2684355211,2684355211,2684355211,
610,2684355211,2684355211,2684355211,2684355211,2684355211,2684355211,2684355211,2684355211,2684355211,2684355211,2684355211,2684355211,2684355211,2684355211,2684355211,2684355211,2684355211,2684355211,2684355211,2684355211,2684355211,2684355211,2684355211,2684355211,2684355211,2684355211,2684355211,2684355211,2684355211,2684355211,651,651,870,0,872,651,651,651,598,565,596,598,565,651,651,651,651,651,651,651,651,84,84,84,84,84,651,2684355211,2684355211,2684355211,2684355211,2684355211,2684355211,340,340,340,340,340,340,
662,2684355211,2684355211,2684355211,2684355211,2684355211,2684355211,2684355211,340,340,340,340,340,340,340,340,340,340,340,340,340,340,340,340,340,340,340,340,340,340,340,340,651,698,0,939,596,340,596,0,715,0,0,681,715,680,681,681,603,681,681,681,715,680,715,715,715,715,680,603,715,603,715,603,340,340,340,340,340,340
</data>
 </layer>
 <layer id="9" name="plateau" width="70" height="40">
  <data encoding="csv">
0,0,0,0,0,0,0,0,0,0,0,0,0,0,0,0,0,0,0,0,0,0,0,0,0,0,0,0,0,0,0,0,0,0,0,0,0,0,0,0,0,0,0,0,0,0,0,0,0,0,0,0,0,0,0,0,0,0,0,0,0,0,0,0,0,0,0,0,0,0,
0,0,0,0,0,0,0,0,0,0,0,0,0,0,0,0,0,0,0,0,0,0,0,0,0,0,0,0,0,0,0,0,0,0,0,0,0,0,0,0,0,0,0,0,0,0,0,0,0,0,0,0,0,0,0,0,0,0,0,0,0,0,0,0,0,0,0,0,0,0,
0,0,0,0,0,0,0,0,0,0,0,0,0,0,0,0,0,0,0,0,0,0,0,0,0,0,0,0,0,0,0,0,0,0,0,0,0,0,0,0,0,0,0,0,0,0,0,0,0,0,0,0,0,0,0,0,0,0,0,0,0,0,0,0,0,0,0,0,0,0,
0,0,0,0,0,0,0,0,0,0,0,0,0,0,0,0,0,0,0,0,0,0,0,0,0,0,0,0,0,0,0,0,0,0,0,0,0,0,0,0,0,0,0,0,0,0,0,0,0,0,0,0,0,0,0,0,0,0,0,0,0,0,0,0,0,0,0,0,0,0,
0,0,0,0,0,0,0,0,0,0,0,0,0,0,0,0,0,0,0,0,0,0,0,0,0,0,0,0,0,0,0,0,0,0,0,0,0,0,0,0,0,0,0,0,0,0,0,0,0,0,0,0,0,0,0,0,0,0,0,0,0,0,0,0,0,0,0,0,0,0,
0,0,0,0,0,0,0,0,0,0,0,0,0,0,0,0,0,0,0,0,0,0,0,0,0,0,0,0,0,0,0,0,0,0,0,0,0,0,0,0,0,0,0,0,0,0,0,0,0,0,0,0,0,0,0,0,0,0,0,0,0,0,0,0,0,0,0,0,0,0,
0,0,0,0,0,0,0,0,0,0,0,0,0,0,0,0,0,0,0,0,0,0,0,0,0,0,0,0,0,0,0,0,0,0,0,0,0,0,0,0,0,0,0,0,0,0,0,0,0,0,0,0,0,0,0,0,0,0,0,0,0,0,0,0,0,0,0,0,0,0,
0,0,0,0,0,0,0,0,0,0,0,0,0,0,0,0,0,0,0,0,0,0,0,0,0,0,0,0,0,0,0,0,0,0,0,0,0,0,0,0,0,0,0,0,0,0,0,0,0,0,0,0,0,0,0,0,0,0,0,0,0,0,0,0,0,0,0,0,0,0,
0,0,0,0,0,0,0,0,0,0,0,0,0,0,0,0,0,0,0,0,0,0,0,0,0,0,0,0,0,0,0,0,0,0,0,0,0,0,0,0,0,0,0,0,0,0,0,0,0,0,0,0,0,0,0,0,0,0,0,0,0,0,0,0,0,0,0,0,0,0,
0,0,0,0,0,0,0,0,0,0,0,0,0,0,0,0,0,0,0,0,0,0,0,0,0,0,0,0,0,0,0,0,0,0,0,0,0,0,0,0,0,0,0,0,0,0,0,0,0,0,0,0,0,0,0,0,0,0,0,0,0,0,0,0,0,0,0,0,0,0,
0,0,0,0,0,0,0,0,0,0,0,0,0,0,0,0,0,0,0,0,0,0,0,0,0,0,0,0,0,0,0,0,0,0,0,0,0,0,0,0,0,0,0,0,0,0,0,0,0,0,0,0,0,0,0,0,0,0,0,0,0,0,0,0,0,0,0,0,0,0,
0,0,0,0,0,0,0,0,0,0,0,0,0,0,0,0,0,0,0,0,0,0,0,0,0,0,0,0,0,0,0,0,0,0,0,0,0,0,0,0,0,0,0,0,0,0,0,0,0,0,0,0,0,0,0,0,0,0,0,0,0,0,0,0,0,0,0,0,0,0,
0,0,0,0,0,0,0,0,0,0,0,0,0,0,0,0,0,0,0,0,0,0,0,0,0,0,0,0,0,0,0,0,0,0,0,0,0,0,0,0,0,0,0,0,0,0,0,0,0,0,0,0,0,0,0,0,0,0,0,0,0,0,0,0,0,0,0,0,0,0,
0,0,0,0,0,0,0,0,0,0,0,0,0,0,0,0,0,0,0,0,0,0,0,0,0,0,0,0,0,0,0,0,0,0,0,0,0,0,0,0,0,0,0,630,631,0,0,0,0,0,0,0,0,0,0,0,0,0,0,0,0,0,0,0,0,0,0,0,0,0,
0,0,0,0,0,0,0,0,0,0,0,0,0,0,0,0,0,0,0,0,0,0,0,0,0,0,0,0,0,0,0,0,0,0,0,0,0,0,0,0,0,0,0,674,598,653,654,655,656,870,689,0,0,0,0,0,0,0,0,0,0,0,0,0,0,0,0,0,0,0,
0,0,0,0,0,0,0,0,0,0,0,0,0,0,0,0,0,582,0,0,0,0,0,0,0,0,0,0,0,0,0,0,0,0,0,0,0,0,0,0,0,0,0,0,674,685,686,687,688,716,0,0,0,0,0,0,0,0,0,0,0,0,0,0,0,0,0,0,0,0,
0,0,0,0,0,0,0,0,0,0,0,0,0,0,0,0,0,0,0,0,0,0,0,0,0,0,0,0,0,0,0,0,0,0,0,0,0,0,0,0,0,0,0,0,0,0,0,0,0,0,0,0,0,0,0,0,0,0,0,0,0,0,0,0,0,0,0,0,0,0,
0,0,0,0,0,0,0,0,0,0,0,0,0,0,0,0,0,0,0,0,0,0,0,0,0,0,0,0,0,0,0,0,0,0,0,0,0,0,0,0,0,0,0,0,0,0,0,0,0,0,0,0,0,0,0,0,0,0,0,0,0,0,0,0,0,0,0,0,0,0,
0,0,0,0,0,0,0,0,0,0,0,0,0,0,0,0,0,0,0,0,0,0,0,0,0,0,0,0,0,0,0,0,0,0,0,0,0,0,0,0,0,0,0,0,0,0,0,0,0,0,0,0,0,0,0,0,0,0,0,0,0,0,0,0,0,0,0,0,0,0,
0,0,0,0,0,0,0,0,0,0,0,0,0,0,654,655,0,0,0,0,0,0,0,0,0,0,0,0,0,0,0,0,0,0,0,0,0,0,0,0,0,0,0,0,0,0,0,0,0,0,0,0,0,0,0,0,0,0,0,0,0,0,0,0,0,0,0,0,0,0,
0,0,0,0,0,0,0,0,0,0,0,0,0,0,686,687,0,0,0,0,0,0,0,0,0,0,0,0,0,0,0,0,0,0,0,0,0,0,0,0,0,0,0,0,0,0,0,0,0,0,0,0,0,0,0,0,0,0,0,0,0,0,0,0,0,0,0,0,0,0,
0,0,0,0,0,0,0,0,0,0,0,0,0,0,0,0,0,0,0,0,0,0,0,0,0,0,0,0,0,0,0,0,0,0,0,0,0,0,0,0,0,0,0,0,0,0,0,0,0,0,0,0,0,0,0,0,0,0,0,0,0,0,0,0,0,0,0,0,0,0,
0,0,0,0,0,0,0,0,0,0,0,0,0,0,0,0,0,0,0,0,0,0,0,0,0,0,0,0,0,0,0,0,0,0,0,0,0,0,0,0,0,0,0,0,0,0,0,0,0,0,0,0,0,0,0,0,0,0,0,0,0,0,0,0,0,0,0,0,0,0,
0,0,0,0,0,0,0,0,0,0,0,0,0,0,0,0,0,0,0,0,0,0,0,0,0,0,0,0,0,0,0,0,0,0,0,0,0,0,0,0,0,0,0,0,0,0,0,0,0,0,0,0,0,0,0,0,0,0,0,0,0,0,0,0,0,0,0,0,0,0,
0,0,0,0,0,0,0,0,0,0,0,0,0,0,0,0,0,0,0,0,0,0,0,0,0,0,0,0,0,0,0,0,0,0,0,0,0,0,0,0,0,0,0,0,0,0,0,0,0,0,0,0,0,0,0,0,0,0,0,0,0,0,0,0,0,0,0,0,0,0,
0,0,0,0,0,0,0,0,0,0,0,0,0,0,0,0,0,0,0,0,0,0,0,0,0,0,0,0,0,0,0,0,0,0,0,0,0,0,0,0,0,0,0,0,0,0,0,0,0,0,0,0,0,0,0,0,0,0,0,0,0,0,0,0,0,0,0,0,0,0,
0,0,0,0,0,0,0,0,0,0,0,0,0,0,0,0,0,0,0,0,0,0,0,0,0,0,0,0,0,0,0,0,0,0,0,0,0,0,0,0,0,0,0,0,0,0,0,0,0,0,0,0,0,0,0,0,0,0,0,0,0,0,0,0,0,0,0,0,0,0,
0,0,0,0,0,0,0,0,0,0,0,0,0,0,0,0,0,0,0,0,0,0,0,0,0,0,0,0,0,0,0,0,0,0,0,0,0,0,0,0,0,0,0,0,0,0,0,0,0,0,0,0,0,0,0,0,0,0,0,0,0,0,0,0,0,0,0,0,0,0,
0,0,0,0,0,0,0,0,0,0,0,0,0,0,0,0,0,0,0,0,0,0,0,0,0,0,0,0,0,0,0,0,0,0,0,0,0,0,0,0,0,0,0,0,0,0,0,0,0,0,0,0,0,0,0,0,0,0,0,0,0,0,0,0,0,0,0,0,0,0,
0,0,0,0,0,0,0,0,0,0,0,0,0,0,0,0,0,0,0,0,0,0,0,0,0,0,0,0,0,0,0,0,0,0,0,0,0,0,0,0,0,0,0,0,0,0,0,0,0,0,0,0,0,0,0,0,0,0,0,0,0,0,0,0,0,0,0,0,0,0,
0,0,0,0,0,0,0,0,0,0,0,0,0,0,0,0,0,0,0,0,0,0,0,0,0,0,0,0,0,0,0,0,0,0,0,0,0,0,0,0,0,0,0,0,0,0,0,0,0,0,0,0,0,0,0,0,0,0,0,0,0,0,0,0,0,0,0,0,0,0,
0,0,0,0,0,0,0,0,0,0,0,0,0,0,0,0,0,0,0,0,0,0,0,0,0,0,0,0,0,0,0,0,0,0,0,0,0,0,0,0,0,0,0,0,0,0,0,0,0,0,0,0,0,0,0,0,0,0,0,0,0,0,0,0,0,0,0,0,0,0,
0,0,0,0,0,0,0,0,0,0,0,0,0,0,0,0,0,0,0,0,0,0,0,0,0,0,0,0,0,0,0,0,0,0,0,0,0,0,0,0,0,0,0,0,0,0,0,0,0,0,0,0,0,0,0,0,0,0,0,0,0,0,0,0,0,0,0,0,0,0,
0,0,0,0,0,0,0,0,0,0,0,0,0,0,0,0,0,0,0,0,0,0,0,0,0,0,0,0,0,0,0,0,0,0,0,0,0,0,0,0,0,0,0,0,0,0,0,0,0,0,0,0,0,0,0,0,0,0,0,0,0,0,0,0,0,0,0,0,0,0,
0,0,0,0,0,0,0,0,0,0,0,0,0,0,0,0,0,0,0,0,0,0,0,0,0,0,0,0,0,0,0,0,0,0,0,0,0,0,0,0,0,0,0,0,0,0,0,0,0,0,0,0,0,0,0,0,0,0,0,0,0,0,0,0,0,0,0,0,0,0,
0,0,0,0,0,0,0,0,0,0,0,0,0,0,0,0,0,0,0,0,0,0,0,0,0,0,0,0,0,0,0,0,0,0,0,0,0,0,0,0,0,0,0,0,0,0,0,0,0,0,0,0,0,0,0,0,0,0,0,0,0,0,0,0,0,0,0,0,0,0,
0,0,0,0,0,0,0,0,0,0,0,0,0,0,0,0,0,0,0,0,0,0,0,0,0,0,0,0,0,0,0,0,0,0,0,0,0,0,0,0,0,0,0,0,0,0,0,0,0,0,0,0,0,0,0,0,0,0,0,0,0,0,0,0,0,0,0,0,0,0,
0,0,0,0,0,0,0,0,0,0,0,0,0,0,0,0,0,0,0,0,0,0,0,0,0,0,0,0,0,0,0,0,0,0,0,0,0,0,0,0,0,0,0,0,0,0,0,0,0,0,0,0,0,0,0,0,0,0,0,0,0,0,0,0,0,0,0,0,0,0,
0,0,0,0,0,0,0,0,0,0,0,0,0,0,0,0,0,0,0,0,0,0,0,0,0,0,0,0,0,0,0,0,0,0,0,0,0,0,0,0,0,0,0,0,0,0,0,0,0,0,0,0,0,0,0,0,0,0,0,0,0,0,0,0,0,0,0,0,0,0,
0,0,0,0,0,0,0,0,0,0,0,0,0,0,0,0,0,0,0,0,0,0,0,0,0,0,0,0,0,0,0,0,0,0,0,0,0,0,0,0,0,0,0,0,0,0,0,0,0,0,0,0,0,0,0,0,0,0,0,0,0,0,0,0,0,0,0,0,0,0
</data>
 </layer>
 <layer id="8" name="port" width="70" height="40">
  <data encoding="csv">
0,0,0,0,0,0,0,0,0,0,0,0,0,0,0,0,0,0,0,0,0,0,0,0,0,0,0,0,0,0,0,0,0,0,0,0,0,0,0,0,0,0,0,0,0,0,0,0,0,0,0,0,0,0,0,0,0,0,0,0,0,0,0,0,0,0,0,0,0,0,
0,0,0,0,0,0,0,0,0,0,0,0,0,0,0,0,0,0,0,0,0,0,0,0,0,0,0,0,0,0,0,0,0,0,0,0,0,0,0,0,0,0,0,0,0,0,0,0,0,0,0,0,0,0,0,0,0,0,0,0,0,0,0,0,0,0,0,0,0,0,
0,0,0,0,0,0,0,0,0,0,0,0,0,0,0,0,0,0,0,0,0,0,0,0,0,0,0,0,0,0,0,0,0,0,0,0,0,0,0,0,0,0,0,0,0,0,0,0,0,0,0,0,0,0,0,0,0,0,0,0,0,0,0,0,0,0,0,0,0,0,
0,0,0,0,0,0,0,0,0,0,0,0,0,0,0,0,0,0,0,0,0,0,0,0,0,0,0,0,0,0,0,0,0,0,0,0,0,0,0,0,0,0,0,0,0,0,0,0,0,0,0,0,0,0,0,0,0,0,0,0,0,0,0,0,0,0,0,0,0,0,
0,0,0,0,0,0,0,0,0,0,0,0,0,0,0,0,0,0,0,0,0,0,0,0,0,0,0,0,0,0,0,0,0,0,0,0,0,0,0,0,0,0,0,0,0,0,0,0,0,0,0,0,0,0,0,0,0,0,0,0,0,0,0,0,0,0,0,0,0,0,
0,0,0,0,0,0,0,0,0,0,0,0,0,0,0,0,0,0,0,0,0,0,0,0,0,0,0,0,0,0,0,0,0,0,0,0,0,0,0,0,0,0,0,0,0,0,0,0,0,0,0,0,0,0,0,0,0,0,0,0,0,0,0,0,0,0,0,0,0,0,
0,0,0,0,0,0,0,0,0,0,0,0,0,0,0,0,0,0,0,0,0,0,0,0,0,0,0,0,0,0,0,0,0,0,0,0,0,0,0,0,0,0,0,0,0,0,0,0,0,0,0,0,0,0,0,0,0,0,0,0,0,0,0,0,0,0,0,0,0,0,
0,0,0,0,0,0,0,0,0,0,0,0,0,0,0,0,0,0,0,0,0,0,0,0,0,0,0,0,0,0,0,0,0,0,0,0,0,0,0,0,0,0,0,0,0,0,0,0,0,0,0,0,0,0,0,0,0,0,0,0,0,0,0,0,0,0,0,0,0,0,
0,0,0,0,0,0,0,0,0,0,0,0,0,0,0,0,0,0,0,0,0,0,0,0,0,0,0,0,0,0,0,0,0,0,0,0,0,0,0,0,0,0,0,0,0,0,0,0,0,0,0,0,0,0,0,0,0,0,0,0,0,0,0,0,0,0,0,0,0,0,
0,0,0,0,0,0,0,0,0,0,0,0,0,0,0,0,0,0,0,0,0,0,0,0,0,0,0,0,0,0,0,0,0,0,0,0,0,0,0,0,0,0,0,0,0,0,0,0,0,0,0,0,0,0,0,0,0,0,0,0,0,0,0,0,0,0,0,0,0,0,
0,0,0,0,0,0,0,0,0,0,0,0,0,0,0,0,0,0,0,0,0,0,0,0,0,0,0,0,0,0,0,0,0,0,0,0,0,0,0,0,0,0,0,0,0,0,0,0,0,0,0,0,0,0,0,0,0,0,0,0,0,0,0,0,0,0,0,0,0,0,
0,0,0,0,0,0,0,0,0,0,0,0,0,0,0,0,0,0,0,0,0,0,0,0,0,0,0,0,0,0,0,0,0,0,0,0,0,0,0,0,0,0,0,0,0,0,0,0,0,0,0,0,0,0,0,0,0,0,0,0,0,0,0,0,0,0,0,0,0,0,
0,0,0,0,0,0,0,0,0,0,0,0,0,0,0,0,0,0,0,0,0,0,0,0,0,0,0,0,0,0,0,0,0,0,0,0,0,0,0,0,0,0,0,0,0,0,0,0,0,0,0,0,0,0,0,0,0,0,0,0,0,0,0,0,0,0,0,0,0,0,
0,0,0,0,0,0,0,0,0,0,0,0,0,0,0,0,0,0,0,0,0,0,0,0,0,0,0,0,0,0,0,0,0,0,0,0,0,0,0,0,0,0,0,0,0,0,0,0,0,0,0,0,0,0,0,0,0,0,0,0,0,0,0,0,0,0,0,0,0,0,
0,0,0,0,0,0,0,0,0,0,0,0,0,0,0,0,0,0,0,0,0,0,0,0,0,0,0,0,0,0,0,0,0,0,0,0,0,0,0,0,0,0,0,0,0,0,0,0,0,0,0,0,0,0,0,0,0,0,0,0,0,0,0,0,0,0,787,788,788,0,
0,0,0,0,0,0,0,0,0,0,0,0,0,0,0,0,0,0,0,0,0,0,0,0,0,0,0,0,0,0,0,0,0,0,0,0,0,0,0,0,0,0,0,0,0,0,0,0,0,0,0,0,0,0,0,0,0,0,0,0,0,0,0,0,0,0,819,820,821,0,
0,0,0,0,0,0,0,0,0,0,0,0,0,0,0,0,0,0,0,0,0,0,0,0,0,0,0,0,0,0,0,0,0,0,0,0,0,0,0,0,0,0,0,0,0,0,0,0,0,0,0,0,0,0,0,0,0,0,0,0,0,0,0,0,0,0,851,852,853,0,
0,0,0,0,0,0,0,0,0,0,0,0,0,0,0,0,0,0,0,0,0,0,0,0,0,0,0,0,0,0,0,0,0,0,0,0,0,0,0,0,0,0,0,0,0,0,0,0,0,0,0,0,0,0,0,0,0,0,0,0,0,0,0,0,0,0,0,0,885,0,
0,0,0,0,0,0,0,0,0,0,0,0,0,0,0,0,0,0,0,0,0,0,0,0,0,0,0,0,0,0,0,0,0,0,0,0,0,0,0,0,0,0,0,0,0,0,0,0,0,0,0,0,0,0,0,0,0,0,0,0,0,0,0,0,0,0,0,0,0,0,
0,0,0,0,0,0,0,0,0,0,0,0,0,0,0,0,0,0,0,0,0,0,0,0,0,0,0,0,0,0,0,0,0,0,0,0,0,0,0,0,0,0,0,0,0,0,0,0,0,0,0,0,0,0,0,0,0,0,0,0,0,0,0,0,0,0,0,0,0,0,
0,0,0,0,0,0,0,0,0,0,0,0,0,0,0,0,0,0,0,0,0,0,0,0,0,0,0,0,0,0,0,0,0,0,0,0,0,0,0,0,0,0,0,0,0,0,0,0,0,0,0,0,0,0,0,0,0,0,0,0,0,0,0,0,0,0,0,0,0,0,
0,0,0,0,0,0,0,0,0,0,0,0,0,0,0,0,0,0,0,0,0,0,0,0,0,0,0,0,0,0,0,0,0,0,0,0,0,0,0,0,0,0,0,0,0,0,0,0,0,0,0,0,0,0,0,0,0,0,0,0,0,0,0,0,0,0,0,0,0,0,
0,0,0,0,0,0,0,0,0,0,0,0,0,0,0,0,0,0,0,0,0,0,0,0,0,0,0,0,0,0,0,0,0,0,0,0,0,0,0,0,0,0,0,0,0,0,0,0,0,0,0,0,0,0,0,0,0,0,0,0,0,0,0,0,0,0,0,0,0,0,
0,0,0,0,0,0,0,0,0,0,0,0,0,0,0,0,0,0,0,0,0,0,0,0,0,0,0,0,0,0,0,0,0,0,0,0,0,0,0,0,0,0,0,0,0,0,0,0,0,0,0,0,0,0,0,0,0,0,0,0,0,0,0,0,0,0,0,0,0,0,
0,0,0,0,0,0,0,0,0,0,0,0,0,0,0,0,0,0,0,0,0,0,0,0,0,0,0,0,0,0,0,0,0,0,0,0,0,0,0,0,0,0,0,0,0,0,0,0,0,0,0,0,0,0,0,0,0,0,0,0,0,0,0,0,0,0,0,0,0,0,
0,0,0,0,0,0,0,0,0,0,0,0,0,0,0,0,0,0,0,0,0,0,0,0,0,0,0,0,0,0,0,0,0,0,0,0,0,0,0,0,0,0,0,0,0,0,0,0,0,0,0,0,0,0,0,0,0,0,0,0,0,0,0,0,0,0,0,0,0,0,
0,0,0,0,0,0,0,0,0,0,0,0,0,0,0,0,0,0,0,0,0,0,0,0,0,0,0,0,0,0,0,0,0,0,0,0,0,0,0,0,0,0,0,0,0,0,0,0,0,0,0,0,0,0,0,0,0,0,0,0,0,0,0,0,0,0,0,0,0,0,
0,0,0,0,0,0,0,0,0,0,0,0,0,0,0,0,0,0,0,0,0,0,0,0,0,0,0,0,0,0,0,0,0,0,0,0,0,0,0,0,0,0,0,0,0,0,0,0,0,0,0,0,0,0,0,0,0,0,0,0,0,0,0,0,0,0,0,0,0,0,
0,0,0,0,0,0,0,0,0,0,0,0,0,0,0,0,0,0,0,0,0,0,0,0,0,0,0,0,0,0,0,0,0,0,0,0,0,0,0,0,0,0,0,0,0,0,0,0,0,0,0,0,0,0,0,0,0,0,0,0,0,0,0,0,0,0,0,0,0,0,
0,0,0,0,0,0,0,0,0,0,0,0,0,0,0,0,0,0,0,0,0,0,0,0,0,0,0,0,0,0,0,0,0,0,0,0,0,0,0,0,0,0,0,0,0,0,0,0,0,0,0,0,0,0,0,0,0,0,0,0,0,0,0,0,0,0,0,0,0,0,
0,0,0,0,0,0,0,0,0,0,0,0,0,0,0,0,0,0,0,0,0,0,0,0,0,0,0,0,0,0,0,0,0,0,0,0,0,0,0,0,0,0,0,0,0,0,0,0,0,0,0,0,0,0,0,0,0,0,0,0,0,0,0,0,0,0,0,0,0,0,
0,0,0,0,0,0,0,0,0,0,0,0,0,0,0,0,0,0,0,0,0,0,0,0,0,0,0,0,0,0,787,791,0,0,0,0,0,0,0,0,0,0,0,0,0,0,0,0,0,0,0,0,0,0,0,0,0,0,0,0,0,0,0,0,0,0,0,0,0,0,
0,0,0,0,0,0,0,0,0,0,0,0,0,0,0,0,0,0,0,0,0,0,0,0,0,0,0,0,0,0,819,823,824,825,0,0,0,0,0,0,0,0,0,0,0,0,0,0,0,0,0,0,0,0,0,0,0,0,0,0,0,0,0,0,0,0,0,0,0,0,
0,0,0,0,0,0,0,0,0,0,0,0,0,0,0,0,0,0,0,0,0,0,0,0,0,0,0,0,0,0,851,855,856,857,0,0,0,0,0,0,0,0,0,0,0,0,0,0,0,0,0,0,0,0,0,0,0,0,0,0,0,0,0,0,0,0,0,0,0,0,
0,0,0,0,0,0,0,0,0,0,0,0,0,0,0,0,0,0,0,0,0,0,0,0,0,0,0,0,0,0,0,887,888,889,0,0,0,0,0,0,0,0,0,0,0,0,0,0,0,0,0,0,0,0,0,0,0,0,0,0,0,0,0,0,0,0,0,0,0,0,
0,0,0,0,0,0,0,0,0,0,0,0,0,0,0,0,0,0,0,0,0,0,0,0,0,0,0,0,0,0,0,0,920,921,0,0,0,0,0,0,0,0,0,0,0,0,0,0,0,0,0,0,0,0,0,0,0,0,0,0,0,0,0,0,0,0,0,0,0,0,
0,0,0,0,0,0,0,0,0,0,0,0,0,0,0,0,0,0,0,0,0,0,0,0,0,0,0,0,0,0,0,0,952,953,366,0,0,0,0,0,0,0,0,0,0,0,0,0,0,0,0,0,0,0,0,0,0,0,0,0,0,0,0,0,0,0,0,0,0,0,
0,0,0,0,0,0,0,0,0,0,0,0,0,0,0,0,0,0,0,0,0,0,0,0,0,0,0,0,0,0,0,0,0,0,0,0,0,0,0,0,0,0,0,0,0,0,0,0,0,0,0,0,0,0,0,0,0,0,0,0,0,0,0,0,0,0,0,0,0,0,
0,0,0,0,0,0,0,0,0,0,0,0,0,0,0,0,0,0,0,0,0,0,0,0,0,0,0,0,0,0,0,0,0,0,0,0,0,0,0,0,0,0,0,0,0,0,0,0,0,0,0,0,0,0,0,0,0,0,0,0,0,0,0,0,0,0,0,0,0,0,
0,0,0,0,0,0,0,0,0,0,0,0,0,0,0,0,0,0,0,0,0,0,0,0,0,0,0,0,0,0,0,0,0,0,0,0,0,0,0,0,0,0,0,0,0,0,0,0,0,0,0,0,0,0,0,0,0,0,0,0,0,0,0,0,0,0,0,0,0,0
</data>
 </layer>
 <layer id="7" name="herbre" width="70" height="40">
  <data encoding="csv">
0,0,0,0,0,0,0,0,0,0,0,0,0,0,0,0,0,0,0,0,0,0,0,0,0,0,0,0,0,0,0,0,0,0,0,0,0,0,0,0,0,0,0,0,0,0,0,0,0,0,0,0,0,0,0,0,0,0,0,0,0,0,0,0,0,0,0,0,0,0,
0,0,0,0,0,0,0,0,0,0,0,0,0,0,0,0,0,0,0,0,0,0,0,0,0,0,0,0,0,0,0,0,0,0,0,0,0,0,0,0,0,0,0,0,0,0,0,0,0,0,0,0,0,0,0,0,345,345,0,0,0,0,0,0,0,0,0,0,0,0,
0,0,0,0,0,0,0,0,0,0,0,0,0,0,0,0,0,0,0,0,0,0,0,0,0,0,0,0,0,0,0,0,0,0,0,0,0,0,0,0,0,0,0,0,0,0,0,0,0,0,0,0,0,0,0,0,0,0,0,0,0,0,0,0,0,0,0,0,0,0,
0,0,0,0,0,0,0,0,0,0,0,0,0,0,0,0,0,0,0,0,0,0,0,0,0,0,0,0,0,0,0,0,0,0,0,0,0,0,0,0,0,0,0,0,0,0,0,0,0,0,0,0,0,0,345,345,345,345,345,345,345,345,345,0,0,0,0,0,0,0,
0,0,0,0,0,0,0,0,0,0,0,0,0,0,0,0,0,0,0,0,0,0,0,0,0,0,0,0,0,0,0,0,0,0,0,0,0,0,0,0,0,0,0,0,0,0,0,0,0,0,0,0,0,345,345,345,345,345,0,345,345,345,0,0,0,0,0,0,0,0,
0,0,0,0,0,0,0,0,0,0,0,0,0,0,0,0,0,0,0,0,0,0,0,0,0,0,0,0,0,0,0,0,0,0,0,0,0,0,0,0,0,0,0,0,0,0,0,0,0,0,0,0,0,0,345,345,345,345,0,345,345,0,0,0,0,0,0,0,0,0,
0,0,0,0,0,0,0,0,0,0,0,0,0,0,0,0,0,0,0,0,0,0,0,0,0,0,0,0,0,0,0,0,0,0,0,0,0,0,0,0,0,0,0,0,0,311,0,0,0,0,0,0,0,0,0,345,345,345,345,345,345,345,0,0,0,0,0,0,0,0,
0,0,0,0,0,0,0,0,0,0,0,0,0,0,0,0,0,0,0,0,0,0,0,0,0,0,0,0,0,0,0,0,0,0,0,0,0,0,0,0,0,0,0,0,0,0,0,0,0,0,0,0,0,0,0,345,345,345,345,345,0,0,0,0,0,0,0,0,0,0,
0,0,0,0,0,0,0,0,0,0,0,0,0,0,0,0,0,0,0,0,0,0,0,0,0,0,0,0,0,0,0,0,0,0,0,0,0,0,0,0,0,0,0,0,0,0,0,0,0,0,0,0,0,0,0,0,0,0,345,0,0,0,0,0,0,0,0,0,0,0,
0,0,0,0,0,0,0,0,0,0,0,0,0,0,0,0,0,0,0,0,0,0,0,0,0,0,0,0,0,0,0,0,0,0,0,0,0,0,0,0,0,0,0,0,547,547,547,547,553,0,0,0,0,0,0,0,0,0,0,0,0,0,0,0,0,0,0,0,0,0,
0,0,0,0,0,0,0,0,0,0,0,0,0,0,0,0,0,0,0,0,0,0,0,0,0,0,0,0,0,0,0,0,0,0,0,0,0,0,0,0,0,0,0,578,0,0,0,0,0,551,0,741,741,741,741,741,0,0,0,0,0,0,0,0,0,0,0,0,0,0,
0,0,0,0,0,0,0,0,0,0,0,0,0,0,0,0,0,0,0,0,0,0,0,0,0,0,0,0,0,0,0,0,0,0,0,0,0,0,0,0,0,0,0,642,0,0,0,0,0,645,0,741,741,741,741,741,0,0,0,0,0,0,0,0,0,0,0,0,0,0,
0,0,0,341,372,339,0,0,0,0,0,0,0,0,0,0,0,0,0,0,0,0,0,0,0,0,0,0,0,0,345,0,0,0,0,0,0,0,0,0,0,0,0,578,0,0,0,0,0,586,0,741,741,741,741,341,309,0,0,0,0,0,0,0,0,0,0,0,0,0,
0,0,0,339,373,371,308,307,0,0,0,0,0,0,0,0,0,0,0,0,0,0,0,0,0,0,0,345,345,345,345,345,0,0,0,0,0,0,0,0,0,0,0,0,0,0,0,0,0,0,625,741,741,741,339,309,0,0,0,0,0,0,0,0,0,0,0,0,0,0,
0,0,307,372,308,371,307,372,0,0,0,0,0,0,0,0,0,0,0,0,0,0,0,0,0,0,0,345,345,345,0,0,0,0,0,0,0,0,0,0,0,0,0,0,0,0,0,0,0,0,0,0,0,0,371,373,371,0,308,0,0,0,0,0,0,0,0,0,0,0,
0,0,372,371,0,341,372,308,307,371,0,0,0,0,0,0,0,0,0,0,0,0,0,0,0,0,0,345,345,345,345,0,0,0,0,0,0,0,0,0,0,0,0,0,0,0,0,0,0,0,0,0,0,372,339,308,372,339,307,341,0,0,0,0,0,0,0,0,0,0,
0,0,373,307,339,307,373,339,341,309,0,0,0,0,0,0,0,0,0,0,0,0,277,0,0,0,345,345,345,345,345,0,0,0,0,0,0,0,0,0,0,0,0,0,0,0,0,0,0,0,0,0,0,84,309,0,308,339,0,0,0,0,0,0,0,0,0,0,0,0,
0,0,0,307,341,371,373,0,0,0,0,0,0,0,0,0,0,0,0,0,0,308,277,0,0,0,0,345,0,345,345,0,0,0,0,0,0,0,0,0,0,0,0,0,0,0,0,0,0,0,0,0,0,371,371,339,308,309,0,0,0,0,0,0,0,0,373,0,0,0,
0,0,0,341,339,341,0,0,0,0,0,0,0,0,0,0,0,0,0,338,339,311,343,345,0,0,345,345,345,345,0,0,0,0,0,0,0,0,0,0,0,0,0,0,0,0,0,0,0,0,0,0,0,339,371,373,309,0,0,0,0,0,0,0,309,371,373,0,0,0,
0,0,0,372,309,373,0,0,0,0,0,0,0,0,0,0,0,0,0,0,339,343,0,345,0,0,0,0,0,0,0,0,0,0,0,0,0,0,0,0,0,0,0,0,0,0,0,0,0,0,0,0,0,0,341,308,373,0,0,0,0,0,0,309,309,373,372,0,0,0,
0,0,0,307,308,308,0,0,0,0,0,0,0,0,0,0,0,0,0,0,339,0,0,0,0,0,0,0,0,0,0,0,0,0,0,0,0,0,0,0,0,0,0,0,0,0,0,0,0,0,0,0,0,0,0,0,0,0,0,0,0,371,308,339,272,309,371,0,0,0,
0,0,0,0,0,0,0,0,0,0,0,0,0,0,0,0,0,0,0,0,371,372,0,0,0,0,0,0,0,0,0,0,0,0,0,0,0,0,0,0,0,0,0,0,0,0,0,0,0,0,0,0,0,0,0,0,0,0,0,0,0,0,0,341,371,371,307,0,0,0,
0,0,0,0,0,0,0,0,0,0,0,0,0,0,0,0,0,0,0,0,0,0,0,0,0,0,0,0,0,0,0,0,0,0,0,0,0,0,0,0,0,0,0,0,0,0,0,0,0,0,0,0,0,0,0,0,0,0,0,0,0,0,0,341,341,373,272,0,0,0,
0,0,0,0,0,0,0,0,0,0,0,0,0,0,0,0,0,0,0,0,0,0,0,0,0,0,0,0,0,0,0,0,0,0,0,0,0,0,0,0,0,0,0,0,0,0,0,0,0,0,0,0,0,0,0,0,0,0,0,0,0,0,0,0,0,0,0,0,0,0,
0,0,0,0,0,0,0,0,0,0,0,0,0,0,0,0,0,0,0,0,0,0,0,0,0,0,0,0,0,0,0,0,0,0,0,0,0,0,0,0,0,0,0,0,0,0,0,0,0,0,0,0,0,0,0,0,0,0,0,0,0,0,0,0,0,0,0,0,0,0,
0,0,0,0,0,0,0,0,0,0,0,0,0,0,0,0,0,0,0,0,0,0,0,0,0,0,0,0,0,0,0,0,0,0,0,0,0,0,0,0,0,0,0,0,0,0,0,0,0,0,0,0,0,0,0,0,0,0,0,0,0,0,0,0,0,0,0,0,0,0,
0,0,0,0,0,0,0,0,0,0,0,0,0,0,0,0,0,0,0,0,0,0,0,0,0,0,0,0,0,0,0,0,0,0,0,0,0,0,0,0,0,0,0,0,0,0,0,0,0,0,0,0,0,0,0,0,0,0,0,0,0,0,0,0,0,0,0,0,0,0,
0,0,0,0,0,0,0,0,0,0,0,0,0,0,0,0,0,0,0,0,0,0,0,0,0,0,0,0,0,0,0,0,0,0,0,0,0,0,0,0,0,0,0,0,0,0,0,0,0,0,0,0,0,0,0,0,0,0,0,0,0,0,0,0,0,0,0,0,0,0,
0,0,0,0,0,0,0,0,0,0,0,0,0,0,0,0,0,0,0,0,0,0,0,0,0,0,0,0,0,0,0,0,0,0,0,0,0,0,0,0,0,0,0,0,0,0,0,0,0,0,0,0,0,0,0,0,0,0,0,0,0,0,0,0,0,0,0,0,0,0,
0,0,0,0,0,0,0,0,0,0,0,0,0,0,0,0,0,0,0,0,0,0,0,0,0,0,0,0,0,0,0,0,0,0,0,0,0,0,0,0,0,0,0,0,0,0,0,0,0,0,0,0,0,0,0,0,0,0,0,0,0,0,0,0,0,0,0,0,0,0,
0,0,0,0,0,0,0,0,0,0,0,0,0,0,0,0,0,0,0,0,0,0,0,0,0,0,0,0,0,0,0,0,0,0,0,0,0,0,0,0,0,0,0,0,0,0,0,0,0,0,0,0,0,0,0,0,0,0,0,0,0,0,0,0,0,0,0,0,0,0,
0,0,0,0,0,0,0,0,0,0,0,0,312,313,0,0,0,0,0,0,0,0,0,0,0,0,0,0,0,0,0,0,0,0,0,0,0,0,0,0,0,0,0,0,0,0,0,0,0,0,0,0,0,0,0,0,0,0,0,0,0,0,0,0,0,0,0,0,0,0,
0,0,0,0,0,0,0,0,0,0,0,376,313,313,0,0,0,0,0,0,0,0,0,0,0,0,0,0,0,0,0,0,0,0,0,0,0,0,0,0,0,0,0,0,0,0,0,0,0,0,0,0,0,0,0,0,0,0,0,0,0,0,0,0,0,0,0,0,0,0,
0,0,0,0,0,0,0,0,0,0,345,343,312,0,0,0,0,0,0,0,0,0,0,0,0,0,0,0,0,0,0,0,0,0,0,0,0,0,0,0,0,0,0,0,0,0,0,0,0,0,0,339,307,0,0,0,0,0,0,0,0,0,0,0,0,0,0,0,0,0,
0,0,0,0,0,0,0,0,0,313,313,312,0,0,0,0,0,0,0,0,0,0,0,0,0,0,0,0,0,0,0,0,0,0,0,0,0,0,0,0,0,0,0,0,0,0,0,0,0,0,341,372,308,339,341,0,0,0,0,0,0,0,0,0,0,0,0,0,0,0,
0,0,0,0,0,0,0,0,0,345,0,0,0,0,0,0,0,0,0,0,0,0,0,0,0,0,0,0,0,0,0,0,0,0,0,0,0,0,0,0,0,0,0,0,0,0,0,0,0,0,339,373,373,339,339,308,0,0,0,0,0,0,0,0,0,0,0,0,0,0,
0,0,0,0,0,0,0,0,0,0,0,0,0,0,0,0,0,0,0,0,0,0,0,0,0,0,0,0,0,0,0,0,0,0,0,0,0,0,0,0,0,0,0,0,0,0,0,0,0,0,307,341,308,309,309,309,0,0,0,0,0,0,0,0,0,0,0,0,0,0,
0,0,0,0,0,0,0,0,0,0,0,0,0,0,0,0,0,0,0,0,0,0,0,0,0,0,0,0,0,0,0,0,0,0,0,0,0,0,0,0,0,0,0,0,0,0,0,0,0,0,0,0,371,307,307,0,0,0,0,0,0,0,0,0,0,0,0,0,0,0,
0,0,0,0,0,0,0,0,0,0,0,0,0,0,0,0,0,0,0,0,0,0,0,0,0,0,0,0,0,0,0,0,0,0,0,0,0,0,0,0,0,0,0,0,0,0,0,0,0,0,0,0,0,0,0,0,0,0,0,0,0,0,0,0,0,0,0,0,0,0,
0,0,0,0,0,0,0,0,0,0,0,0,0,0,0,0,0,0,0,0,0,0,0,0,0,0,0,0,0,0,0,0,0,0,0,0,0,0,0,0,0,0,0,0,0,0,0,0,0,0,0,0,0,0,0,0,0,0,0,0,0,0,0,0,0,0,0,0,0,0
</data>
 </layer>
 <layer id="5" name="mur" width="70" height="40">
  <data encoding="csv">
360,361,360,361,0,0,0,0,0,0,326,327,326,327,326,327,326,327,326,327,326,327,326,327,326,327,330,331,332,331,333,326,327,326,327,326,327,326,327,0,0,0,0,0,0,0,0,326,327,326,327,322,323,324,325,322,323,324,325,322,323,324,325,322,323,324,325,258,259,260,
361,0,0,0,0,0,0,0,0,0,358,359,358,359,358,359,358,359,358,359,358,359,358,359,358,359,362,363,364,363,365,358,359,358,359,358,359,358,359,0,0,0,0,0,0,0,0,358,359,358,359,0,355,356,0,0,355,356,0,0,355,356,0,0,355,356,0,290,291,292,
361,0,0,3,3,4,0,0,7,8,0,0,0,0,0,0,0,0,0,0,0,0,0,0,41,0,0,0,0,46,47,48,0,0,0,0,0,0,0,0,0,0,0,0,0,0,0,0,0,0,0,0,0,0,0,0,0,0,0,0,0,0,0,0,0,0,0,322,323,324,
361,0,0,35,35,3,4,0,0,7,8,0,0,0,0,0,0,0,2147483943,2147483942,2147483943,2147483942,0,0,73,0,0,0,0,0,0,0,0,0,0,258,259,260,261,0,0,0,0,0,0,0,0,0,0,0,0,0,0,0,0,0,0,0,2147483943,2147483942,0,0,0,0,0,0,0,0,355,356,
361,0,0,67,67,35,3,4,0,0,7,0,0,0,0,0,0,0,2147483975,2147483974,2147483975,2147483974,0,0,105,0,0,0,0,0,0,0,0,0,0,290,291,292,293,0,0,0,0,0,0,0,0,0,0,0,0,0,0,0,0,0,0,0,2147483975,2147483974,0,0,2147483943,2147483942,0,0,0,0,294,295,
0,0,0,99,99,67,35,0,0,0,0,40,0,0,0,0,0,0,2147484007,2147484006,2147484007,2147484006,0,0,137,0,0,0,0,0,0,0,0,0,0,322,323,324,325,0,0,0,258,0,0,0,0,0,0,0,0,0,0,0,0,0,0,0,2147484007,2147484006,0,0,2147483975,2147483974,0,0,0,0,326,327,
0,0,0,0,0,99,0,0,0,0,0,72,0,0,0,0,0,0,0,0,0,0,0,0,169,0,0,0,0,0,0,176,0,0,0,0,355,356,0,0,0,0,0,0,0,0,0,0,0,0,0,0,0,0,0,0,0,0,0,0,0,0,2147484007,2147484006,0,0,0,0,358,359,
0,0,0,0,294,295,99,0,0,0,0,104,0,0,0,0,0,0,0,0,0,0,0,0,201,0,0,0,0,206,207,208,0,0,0,0,0,0,0,0,0,0,0,0,0,0,0,0,0,0,0,0,0,0,0,0,0,0,0,0,0,0,0,0,0,0,0,0,0,0,
0,0,0,0,326,327,131,0,0,0,0,294,295,0,0,0,0,0,0,0,0,0,0,0,0,0,0,0,0,0,0,0,0,0,0,0,0,0,0,0,0,0,0,0,0,0,0,0,0,0,0,0,0,0,0,0,0,0,0,0,0,0,0,0,0,0,0,0,0,0,
1610613063,1610613095,0,0,358,359,163,0,0,0,0,326,327,0,0,0,0,0,0,0,0,0,0,0,0,0,0,0,0,0,0,0,0,0,0,0,0,0,0,0,0,0,0,0,0,0,0,3,4,0,0,7,8,0,0,0,0,0,0,0,0,0,0,0,0,0,0,0,0,0,
1610613062,1610613094,0,0,0,0,195,0,0,0,0,358,359,0,0,0,0,0,0,0,0,0,0,0,0,0,0,294,295,0,0,0,0,0,0,0,0,0,0,0,0,0,0,0,0,0,0,35,0,0,0,0,0,0,0,0,0,0,0,0,0,0,0,0,0,0,0,0,0,0,
1610613063,1610613095,0,0,0,0,0,0,0,0,0,0,0,0,0,0,0,0,0,0,0,0,0,0,0,0,0,326,327,0,0,0,0,0,0,0,0,0,0,0,0,0,0,0,0,0,0,67,0,0,0,0,72,0,0,0,0,0,0,0,0,0,0,0,0,0,0,0,0,0,
1610613062,1610613094,0,0,0,0,0,0,0,0,0,0,0,4,0,0,7,0,0,0,0,0,0,0,0,0,0,358,359,0,0,0,0,0,0,0,0,0,0,0,0,0,0,0,0,0,0,99,0,0,0,0,104,0,0,0,0,0,0,0,0,0,0,0,0,0,0,0,0,0,
1610613063,1610613095,0,0,0,0,0,0,0,0,0,0,0,0,0,0,0,0,0,0,0,0,0,0,0,0,0,0,0,0,0,0,0,0,0,0,0,0,0,0,0,0,0,0,0,0,0,0,0,0,0,0,136,0,0,0,0,0,0,0,0,0,0,0,0,0,0,0,0,0,
1610613062,1610613094,0,0,0,0,0,0,0,0,0,0,547,0,0,0,0,547,0,0,0,0,0,0,0,0,0,0,2147483943,2147483942,0,0,0,0,0,0,0,0,0,0,0,0,0,0,0,0,0,163,0,0,0,0,168,0,0,0,0,0,0,0,0,0,0,0,0,0,0,0,0,0,
1610613063,1610613095,0,0,0,0,0,0,0,0,0,610,0,0,0,0,0,0,593,294,295,0,0,294,295,0,0,0,2147483975,2147483974,0,0,0,0,0,0,0,0,0,0,0,0,0,0,0,0,0,195,0,0,0,0,200,0,0,0,0,0,0,0,0,0,0,0,0,0,0,0,0,0,
1610613062,1610613094,0,0,0,0,0,0,0,0,0,610,0,0,0,0,0,0,593,326,327,0,0,326,327,0,0,0,2147484007,2147484006,0,0,0,0,0,0,0,0,0,0,0,0,0,294,295,0,0,0,0,0,0,0,0,0,0,0,0,0,0,0,0,0,0,0,0,0,0,0,0,0,
1610613063,1610613095,0,0,0,0,0,0,0,0,0,610,0,0,0,0,0,0,593,358,359,0,0,358,359,0,0,0,0,0,9,0,0,0,0,0,0,16,0,0,0,0,0,326,327,0,0,0,0,0,0,0,0,0,0,0,0,0,2147483943,2147483942,0,0,0,0,0,0,0,0,0,0,
1610613062,1610613094,0,0,0,0,0,0,1610613069,1610613101,0,610,0,0,0,0,0,0,593,0,0,0,0,0,0,0,0,0,0,0,41,0,0,0,0,0,0,48,0,0,0,0,0,358,359,0,0,0,0,0,0,0,0,0,0,0,0,0,2147483975,2147483974,0,0,0,0,0,0,0,0,0,0,
1610613063,1610613095,0,0,0,0,0,0,1610613068,1610613100,0,642,0,0,0,0,0,0,593,0,0,0,0,0,0,0,0,0,0,0,73,0,0,0,0,0,0,0,0,0,0,294,295,2147483943,2147483942,294,295,0,0,0,0,0,0,0,0,0,0,0,2147484007,2147484006,0,0,0,0,0,0,0,0,0,0,
1610613062,1610613094,0,0,0,0,0,0,1610613067,1610613099,0,674,715,715,0,0,715,715,689,0,0,0,0,0,0,0,0,0,258,259,260,261,0,0,0,0,0,0,0,0,0,326,327,2147483975,2147483974,326,327,0,0,0,0,0,0,0,0,0,0,0,0,0,0,0,0,0,0,0,0,0,0,0,
1610613063,1610613095,0,0,0,0,0,0,1610613066,1610613098,0,0,0,0,0,0,0,0,0,0,0,0,0,0,0,0,0,0,290,291,292,293,0,0,0,0,0,0,0,0,0,358,359,2147484007,2147484006,358,359,0,0,0,0,0,0,0,0,0,0,0,0,0,0,0,0,0,0,0,0,0,0,0,
1610613062,1610613094,0,0,294,295,0,0,0,0,0,0,0,0,0,0,330,331,332,333,0,0,13,0,0,0,0,7,322,323,324,325,0,0,0,0,0,176,0,0,0,0,0,328,329,0,0,0,0,0,0,0,0,0,0,0,0,0,0,0,0,0,0,0,0,0,0,0,0,0,
1610613063,1610613095,0,0,326,327,0,0,0,0,0,0,0,0,1610613069,1610613101,362,363,364,365,0,0,0,46,0,0,0,0,0,355,356,0,0,0,0,0,0,0,0,0,0,0,0,360,361,0,0,0,0,0,0,0,0,0,0,0,0,0,0,0,0,0,0,0,0,0,0,0,0,0,
1610613062,1610613094,0,0,358,359,0,0,0,0,0,0,0,0,1610613067,1610613099,0,0,73,0,0,0,0,0,0,0,0,0,0,0,233,234,235,236,237,0,0,0,0,0,0,0,0,0,0,0,0,0,0,0,0,0,0,0,258,259,260,261,0,0,258,0,0,261,0,0,0,0,0,0,
1610613063,1610613095,0,0,0,0,0,0,0,0,0,0,0,0,1610613067,1610613099,0,0,105,0,0,0,0,0,0,0,0,0,0,0,0,0,0,0,0,0,0,0,0,0,0,0,0,0,0,0,0,0,0,0,0,0,0,0,290,291,292,293,0,0,0,0,0,0,0,0,0,0,0,0,
1610613062,1610613094,0,0,0,294,295,0,0,0,0,0,0,0,1610613066,1610613098,0,0,137,0,0,0,0,0,0,0,0,0,0,0,0,0,0,0,0,0,0,0,0,0,0,0,0,0,0,0,0,0,0,0,0,0,0,0,322,323,324,325,0,0,0,0,0,0,0,0,0,0,0,0,
1610613063,1610613095,0,0,0,326,327,0,0,0,0,0,0,0,0,0,0,1610613067,1610613099,0,0,0,0,0,0,0,0,0,0,0,0,0,0,0,0,0,0,0,0,0,0,0,0,0,0,0,0,0,0,0,0,0,0,0,0,355,356,0,0,0,0,0,0,0,0,0,0,0,0,0,
1610613062,1610613094,0,0,0,358,359,0,0,0,0,0,0,0,0,0,0,1610613066,1610613098,0,0,0,0,206,0,0,0,0,0,0,0,0,294,295,294,295,294,295,0,0,0,0,0,0,0,0,0,0,0,0,0,0,0,0,0,0,67,0,0,0,0,72,0,0,0,0,0,0,0,0,
1610613063,1610613095,0,0,0,0,0,0,0,0,0,0,0,0,0,0,0,0,0,0,0,0,0,0,0,0,0,0,0,0,0,0,326,327,326,327,326,327,0,0,0,0,0,0,0,0,0,0,0,2147483943,2147483942,0,0,0,0,328,329,0,0,0,0,328,329,0,0,0,0,0,0,0,
1610613062,1610613094,0,0,0,0,0,0,0,0,0,0,0,0,0,0,0,0,0,0,0,0,0,0,0,0,0,0,0,0,0,0,358,359,358,359,358,359,0,0,0,0,0,0,0,0,0,0,0,2147483975,2147483974,0,0,0,0,360,361,0,0,0,0,360,361,0,0,0,0,0,294,295,
0,0,0,0,0,0,0,0,0,0,0,0,0,0,0,0,0,330,331,332,331,332,331,332,331,332,333,0,0,0,0,0,0,0,0,0,0,0,0,0,0,0,0,0,0,0,0,0,0,2147484007,2147484006,0,0,0,0,328,329,0,0,0,0,328,329,0,0,0,0,0,326,327,
0,0,0,0,0,0,0,0,0,0,0,0,0,0,0,0,0,362,363,364,363,364,363,364,363,364,365,0,0,0,0,0,0,0,0,0,0,0,0,0,0,0,0,0,0,0,0,0,0,0,0,0,0,0,0,360,361,0,0,0,0,360,361,0,0,0,0,0,358,359,
0,0,0,0,0,0,0,0,0,0,0,0,0,0,0,0,0,0,0,0,2147483943,2147483942,0,0,0,0,0,0,0,0,0,0,0,0,0,0,0,0,0,0,0,0,0,0,0,0,0,0,0,0,0,0,0,0,0,330,331,332,331,331,332,331,332,333,0,0,0,0,294,295,
0,0,0,0,0,0,0,0,0,0,0,0,0,0,0,0,0,0,0,0,2147483975,2147483974,0,0,0,0,0,0,0,0,0,0,0,0,0,0,0,0,0,0,0,0,0,0,0,0,0,0,0,0,0,0,0,0,0,362,363,364,363,363,364,363,364,365,0,0,0,0,326,327,
0,0,0,0,0,0,0,0,0,0,0,0,0,0,0,0,0,0,0,0,2147484007,2147484006,0,0,0,0,0,0,0,0,0,0,0,0,0,0,0,0,0,0,0,0,0,0,0,0,0,0,0,0,0,0,0,0,0,0,0,0,0,0,0,397,0,397,0,0,0,0,358,359,
0,0,0,0,0,0,0,0,0,0,0,0,0,0,0,0,0,0,0,0,0,0,0,0,0,0,0,0,0,0,0,0,0,0,0,0,258,259,260,261,0,0,0,0,0,0,0,0,0,0,0,0,0,0,0,0,0,0,0,0,0,0,0,0,294,295,294,295,294,295,
0,0,0,0,0,0,0,0,294,295,294,295,294,295,294,295,294,295,294,295,294,295,294,295,294,295,294,295,294,295,294,295,0,0,0,0,290,291,292,293,0,0,0,0,2684354767,0,0,0,0,0,0,0,0,0,0,0,0,0,0,0,0,0,0,0,326,327,326,327,326,327,
330,331,331,332,332,331,332,333,326,327,326,327,326,327,326,327,326,327,326,327,326,327,326,327,326,327,326,327,326,327,326,327,0,0,0,0,322,323,324,325,0,0,0,0,0,0,0,0,0,0,0,0,0,0,0,0,0,0,0,0,0,0,0,0,358,359,358,359,358,359,
362,363,363,364,364,363,364,365,358,359,358,359,358,359,358,359,358,359,358,359,358,359,358,359,358,359,358,359,358,359,358,359,0,0,0,0,0,355,356,0,0,0,0,0,0,0,0,0,0,0,0,0,0,0,0,0,0,0,0,0,0,0,0,0,0,0,0,0,0,0
</data>
 </layer>
 <layer id="13" name="mur2" width="70" height="40">
  <data encoding="csv">
0,0,0,0,0,0,0,0,0,0,0,294,295,294,295,294,295,294,295,294,295,294,295,294,295,294,295,0,0,0,294,295,294,295,294,295,294,295,294,295,0,0,0,0,0,0,0,295,294,0,0,0,290,291,292,293,290,291,292,293,0,290,291,292,293,294,295,0,0,0,
0,0,0,0,0,0,0,0,0,0,0,326,327,326,327,326,327,326,327,326,327,326,327,326,327,326,327,0,0,0,326,327,326,327,326,327,326,327,326,327,0,0,0,0,0,0,0,0,0,0,0,0,322,323,324,325,322,323,324,325,0,322,323,324,325,326,327,0,0,0,
0,0,0,0,0,0,0,0,0,0,0,358,359,358,359,358,359,358,359,358,359,358,359,358,359,358,359,0,0,0,358,359,358,359,358,359,358,359,358,359,0,0,0,0,0,0,0,0,0,0,0,0,0,355,356,357,0,355,356,357,0,0,355,356,357,358,359,0,0,0,
0,0,0,0,0,0,0,0,0,0,0,0,0,0,0,0,0,0,0,0,0,0,0,0,0,0,0,0,0,0,0,0,0,0,0,0,0,0,0,0,0,0,0,0,0,0,0,0,0,0,0,0,0,0,0,0,0,0,0,0,0,0,0,0,0,0,294,295,0,0,
0,0,0,0,0,0,0,0,0,0,0,0,0,0,0,0,0,0,0,0,0,0,0,0,0,0,0,0,0,0,0,0,0,0,0,0,0,0,0,0,0,0,0,0,0,0,0,0,0,0,0,0,0,0,0,0,0,0,0,0,0,0,0,0,0,0,326,327,0,0,
0,0,0,0,0,0,0,0,0,0,0,0,0,0,0,0,0,0,0,0,0,0,0,0,0,0,0,0,0,0,0,0,0,0,0,0,0,0,0,0,0,0,0,0,0,0,0,0,0,0,0,0,0,0,0,0,0,0,0,0,0,0,0,0,0,0,358,359,0,0,
0,0,0,0,0,0,0,0,0,0,0,0,0,0,0,0,0,0,0,0,0,0,0,0,0,0,0,0,0,0,0,0,0,0,0,0,0,0,0,0,0,0,0,0,0,0,0,0,0,0,0,0,0,0,0,0,0,0,0,0,0,0,0,0,0,0,0,0,0,0,
0,0,0,0,0,0,0,0,0,0,0,0,0,0,0,0,0,0,0,0,0,0,0,0,0,0,0,0,0,0,0,0,0,0,0,0,0,0,0,0,0,0,0,0,0,0,0,0,0,0,0,0,0,0,0,0,0,0,0,0,0,0,0,0,0,0,0,0,0,0,
0,0,0,0,0,0,0,0,0,0,0,0,0,0,0,0,0,0,0,0,0,0,0,0,0,0,0,0,0,0,0,0,0,0,0,0,0,0,0,0,0,0,0,0,0,0,0,0,0,0,0,0,0,0,0,0,0,0,0,0,0,0,0,0,0,0,0,0,0,0,
0,0,0,0,0,0,0,0,0,0,0,0,0,0,0,0,0,0,0,0,0,0,0,0,0,0,0,0,0,0,0,0,0,0,0,0,0,0,0,0,0,0,0,0,0,0,0,0,0,0,0,0,0,0,0,0,0,0,0,0,0,0,0,0,0,0,0,0,0,0,
0,0,0,0,0,0,0,0,0,0,0,0,0,0,0,0,0,0,0,0,0,0,0,0,0,0,0,0,0,0,0,0,0,0,0,0,0,0,0,0,0,0,0,0,0,0,0,0,0,0,0,0,0,0,0,0,0,0,0,0,0,0,0,0,0,0,0,0,0,0,
0,0,0,0,0,0,0,0,0,0,0,0,0,0,0,0,0,0,0,0,0,0,0,0,0,0,0,0,0,0,0,0,0,0,0,0,0,0,0,0,0,0,0,0,0,0,0,0,0,0,0,0,0,0,0,0,0,0,0,0,0,0,0,0,0,0,0,0,0,0,
0,0,0,0,0,0,0,0,0,0,0,0,0,0,0,0,0,0,0,0,0,0,0,0,0,0,0,0,0,0,0,0,0,0,0,0,0,0,0,0,0,0,0,0,0,0,0,0,0,0,0,0,0,0,0,0,0,0,0,0,0,0,0,0,0,0,0,0,0,0,
0,0,0,0,0,0,0,0,0,0,0,0,0,0,0,0,0,0,0,0,0,0,0,0,0,0,0,0,0,0,0,0,0,0,0,0,0,0,0,0,0,0,0,0,0,0,0,0,0,0,0,0,0,0,0,0,0,0,0,0,0,0,0,0,0,0,0,0,0,0,
0,0,0,0,0,0,0,0,0,0,0,0,0,0,0,0,0,0,0,0,0,0,0,0,0,0,0,0,0,0,0,0,0,0,0,0,0,0,0,0,0,0,0,0,0,0,0,0,0,0,0,0,0,0,0,0,0,0,0,0,0,0,0,0,0,0,0,0,0,0,
0,0,0,0,0,0,0,0,0,0,0,0,0,0,0,0,0,0,0,0,0,0,0,0,0,0,0,0,0,0,0,0,0,0,0,0,0,0,0,0,0,0,0,0,0,0,0,0,0,0,0,0,0,0,0,0,0,0,0,0,0,0,0,0,0,0,0,0,0,0,
0,0,0,0,0,0,0,0,0,0,0,0,0,0,0,0,0,0,0,0,0,0,0,0,0,0,0,0,0,0,0,0,0,0,0,0,0,0,0,0,0,0,0,0,0,0,0,0,0,0,0,0,0,0,0,0,0,0,0,0,0,0,0,0,0,0,0,0,0,0,
0,0,0,0,0,0,0,0,0,0,0,0,0,0,0,0,0,0,0,0,0,0,0,0,0,0,0,0,0,0,0,0,0,0,0,0,0,0,0,0,0,0,0,0,0,0,0,0,0,0,0,0,0,0,0,0,0,0,0,0,0,0,0,0,0,0,0,0,0,0,
0,0,0,0,0,0,0,0,0,0,0,0,0,0,0,0,0,0,0,0,0,0,0,0,0,0,0,0,0,0,0,0,0,0,0,0,0,0,0,0,0,0,0,0,0,0,0,0,0,0,0,0,0,0,0,0,0,0,0,0,0,0,0,0,0,0,0,0,0,0,
0,0,0,0,0,0,0,0,0,0,0,0,0,0,0,0,0,0,0,0,0,0,0,0,0,0,0,0,0,0,0,0,0,0,0,0,0,0,0,0,0,0,0,0,0,0,0,0,0,0,0,0,0,0,0,0,0,0,0,0,0,0,0,0,0,0,0,0,0,0,
0,0,0,0,0,0,0,0,0,0,0,0,0,0,0,0,0,0,0,0,0,0,0,0,0,0,0,0,0,0,0,0,0,0,0,0,0,0,0,0,0,0,0,0,0,0,0,0,0,0,0,0,0,0,0,0,0,0,0,0,0,0,0,0,0,0,0,0,0,0,
0,0,0,0,0,0,0,0,0,0,0,0,0,0,0,0,0,0,0,0,0,0,0,0,0,0,0,0,0,0,0,0,0,0,0,0,0,0,0,0,0,0,0,0,0,0,0,0,0,0,0,0,0,0,0,0,0,0,0,0,0,0,0,0,0,0,0,0,0,0,
0,0,0,0,0,0,0,0,0,0,0,0,0,0,0,0,0,0,0,0,0,0,0,0,0,0,0,0,0,0,0,0,0,0,0,0,0,0,0,0,0,0,0,0,0,0,0,0,0,0,0,0,0,0,0,0,0,0,0,0,0,0,0,0,0,0,0,0,0,0,
0,0,0,0,0,0,0,0,0,0,0,0,0,0,0,0,0,0,0,0,0,0,0,0,0,0,0,0,0,0,0,0,0,0,0,0,0,0,0,0,0,0,0,0,0,0,0,0,0,0,0,0,0,0,0,0,0,0,0,0,0,0,0,0,0,0,0,0,0,0,
0,0,0,0,0,0,0,0,0,0,0,0,0,0,0,0,0,0,0,0,0,0,0,0,0,0,0,0,0,0,0,0,0,0,0,0,0,0,0,0,0,0,0,0,0,0,0,0,0,0,0,0,0,0,0,0,0,0,0,0,0,0,0,0,0,0,0,0,0,0,
0,0,0,0,0,0,0,0,0,0,0,0,0,0,0,0,0,0,0,0,0,0,0,0,0,0,0,0,0,0,0,0,0,0,0,0,0,0,0,0,0,0,0,0,0,0,0,0,0,0,0,0,0,0,0,0,0,0,0,0,0,0,0,0,0,0,0,0,0,0,
0,0,0,0,0,0,0,0,0,0,0,0,0,0,0,0,0,0,0,0,0,0,0,0,0,0,0,0,0,0,0,0,0,0,0,0,0,0,0,0,0,0,0,0,0,0,0,0,0,0,0,0,0,0,0,0,0,0,0,0,0,0,0,0,0,0,0,0,0,0,
0,0,0,0,0,0,0,0,0,0,0,0,0,0,0,0,0,0,0,0,0,0,0,0,0,0,0,0,0,0,0,0,0,0,0,0,0,0,0,0,0,0,0,0,0,0,0,0,0,0,0,0,0,0,0,0,0,0,0,0,0,0,0,0,0,0,0,0,0,0,
0,0,0,0,0,0,0,0,0,0,0,0,0,0,0,0,0,0,0,0,0,0,0,0,0,0,0,0,0,0,0,0,0,0,0,0,0,0,0,0,0,0,0,0,0,0,0,0,0,0,0,0,0,0,0,0,0,0,0,0,0,0,0,0,0,0,0,0,0,0,
0,0,0,0,0,0,0,0,0,0,0,0,0,0,0,0,0,0,0,0,0,0,0,0,0,0,0,0,0,0,0,0,0,0,0,0,0,0,0,0,0,0,0,0,0,0,0,0,0,0,0,0,0,0,0,0,0,0,0,0,0,0,0,0,0,0,0,0,0,0,
0,0,0,0,0,0,0,0,0,0,0,0,0,0,0,0,0,0,0,0,0,0,0,0,0,0,0,0,0,0,0,0,0,0,0,0,0,0,0,0,0,0,0,0,0,0,0,0,0,0,0,0,0,0,0,0,0,0,0,0,0,0,0,0,0,0,0,0,0,0,
0,0,0,0,0,0,0,0,0,0,0,0,0,0,0,0,0,0,0,0,0,0,0,0,0,0,0,0,0,0,0,0,0,0,0,0,0,0,0,0,0,0,0,0,0,0,0,0,0,0,0,0,0,0,0,0,0,0,0,0,0,0,0,0,0,0,0,294,295,0,
0,0,0,0,0,0,0,0,0,0,0,0,0,0,0,0,0,0,0,0,0,0,0,0,0,0,0,0,0,0,0,0,0,0,0,0,0,0,0,0,0,0,0,0,0,0,0,0,0,0,0,0,0,0,0,0,0,0,0,0,0,0,0,0,0,0,0,326,327,0,
0,0,0,0,0,0,0,0,0,0,0,0,0,0,0,0,0,0,0,0,0,0,0,0,0,0,0,0,0,0,0,0,0,0,0,0,0,0,0,0,0,0,0,0,0,0,0,0,0,0,0,0,0,0,0,0,0,0,0,0,0,0,0,0,0,0,0,358,359,0,
0,0,0,0,0,0,0,0,0,0,0,0,0,0,0,0,0,0,0,0,0,0,0,0,0,0,0,0,0,0,0,0,0,0,0,0,0,0,0,0,0,0,0,0,0,0,0,0,0,0,0,0,0,0,0,0,0,0,0,0,0,0,0,0,0,294,295,294,295,0,
0,0,0,0,0,0,0,0,0,0,0,0,0,0,0,0,0,0,0,0,0,0,0,0,0,0,0,0,0,0,0,0,0,0,0,0,0,0,0,0,0,0,0,0,0,0,0,0,0,0,0,0,0,0,0,0,0,0,0,0,0,0,0,0,0,326,327,326,327,0,
0,0,0,0,0,0,0,0,0,0,0,0,0,0,0,0,0,0,0,0,0,0,0,0,0,0,0,0,0,0,0,0,0,0,0,0,0,0,0,0,0,0,0,0,0,0,0,0,0,0,0,0,0,0,0,0,0,0,0,0,0,0,0,0,0,358,359,358,359,0,
0,0,0,0,0,0,0,0,0,0,0,0,0,0,0,0,0,0,0,0,0,0,0,0,0,0,0,0,0,0,0,0,0,0,0,0,0,0,0,0,0,0,0,0,0,0,0,0,0,0,0,0,0,0,0,0,0,0,0,0,0,0,0,0,0,294,295,294,295,0,
0,0,0,0,0,0,0,0,0,0,0,0,0,0,0,0,0,0,0,0,0,0,0,0,0,0,0,0,0,0,0,0,0,0,0,0,0,0,0,0,0,0,0,0,0,0,0,0,0,0,0,0,0,0,0,0,0,0,0,0,0,0,0,0,0,326,327,326,327,0,
0,0,0,0,0,0,0,0,0,0,0,0,0,0,0,0,0,0,0,0,0,0,0,0,0,0,0,0,0,0,0,0,0,0,0,0,0,0,0,0,0,0,0,0,0,0,0,0,0,0,0,0,0,0,0,0,0,0,0,0,0,0,0,0,0,358,359,358,359,0
</data>
 </layer>
 <layer id="15" name="mur3" width="70" height="40">
  <data encoding="csv">
0,0,0,0,0,0,0,0,0,0,0,0,0,0,0,0,0,0,0,0,0,0,0,0,0,0,0,0,0,0,0,0,0,0,0,0,0,0,0,0,0,0,0,0,0,0,0,0,0,0,0,0,0,0,0,0,0,0,0,0,0,0,0,0,0,0,0,0,0,0,
0,0,0,0,0,0,0,0,0,0,0,0,0,0,0,0,0,0,0,0,0,0,0,0,0,0,0,0,0,0,0,0,0,0,0,0,0,0,0,0,0,0,0,0,0,0,0,0,0,0,0,0,0,0,0,0,0,0,0,0,0,0,0,0,0,0,0,0,0,0,
0,0,0,0,0,0,0,0,0,0,0,0,0,0,0,0,0,0,0,0,0,0,0,0,0,0,0,0,0,0,0,0,0,0,0,0,0,0,0,0,0,0,0,0,0,0,0,0,0,0,0,0,0,0,0,0,0,0,0,0,0,0,0,0,0,0,0,0,0,0,
0,0,0,0,0,0,0,0,0,0,0,0,0,0,0,0,0,0,0,0,0,0,0,0,0,0,0,0,0,0,0,0,0,0,0,0,0,0,0,0,0,0,0,0,0,0,0,0,0,0,0,0,0,0,0,0,0,0,0,0,0,0,0,0,0,0,0,0,0,0,
0,0,0,0,0,0,0,0,0,0,0,0,0,0,0,0,0,0,0,0,0,0,0,0,0,0,0,0,0,0,0,0,0,0,0,0,0,0,0,0,0,0,0,0,0,0,0,0,0,0,0,0,0,0,0,0,0,0,0,0,0,0,0,0,0,0,0,0,0,0,
0,0,0,0,0,0,0,0,0,0,0,0,0,0,0,0,0,0,0,0,0,0,0,0,0,0,0,0,0,0,0,0,0,0,0,0,0,0,0,0,0,0,0,0,0,0,0,0,0,0,0,0,0,0,0,0,0,0,0,0,0,0,0,0,0,0,0,0,0,0,
0,0,0,0,0,0,0,0,0,0,0,0,0,0,0,0,0,0,0,0,0,0,0,0,0,0,0,0,0,0,0,0,0,0,0,0,0,0,0,0,0,0,0,0,0,0,0,0,0,0,0,0,0,0,0,0,0,0,0,0,0,0,0,0,0,0,0,0,0,0,
0,0,0,0,0,0,0,0,0,0,0,0,0,0,0,0,0,0,0,0,0,0,0,0,0,0,0,0,0,0,0,0,0,0,0,0,0,0,0,0,0,0,0,0,0,0,0,0,0,0,0,0,0,0,0,0,0,0,0,0,0,0,0,0,0,0,0,0,0,0,
0,0,0,0,0,0,0,0,0,0,0,0,0,0,0,0,0,0,0,0,0,0,0,0,0,0,0,0,0,0,0,0,0,0,0,0,0,0,0,0,0,0,0,0,0,0,0,0,0,0,0,0,0,0,0,0,0,0,0,0,0,0,0,0,0,0,0,0,0,0,
0,0,0,0,0,0,0,0,0,0,0,0,0,0,0,0,0,0,0,0,0,0,0,0,0,0,0,0,0,0,0,0,0,0,0,0,0,0,0,0,0,0,0,0,0,0,0,0,0,0,0,0,0,0,0,0,0,0,0,0,0,0,0,0,0,0,0,0,0,0,
0,0,0,0,0,0,0,0,0,0,0,0,0,0,0,0,0,0,0,0,0,0,0,0,0,0,0,0,0,0,0,0,0,0,0,0,0,0,0,0,0,0,0,0,0,0,0,0,0,0,0,0,0,0,0,0,0,0,0,0,0,0,0,0,0,0,0,0,0,0,
0,0,0,0,0,0,0,0,0,0,0,0,0,0,0,0,0,0,0,0,0,0,0,0,0,0,0,0,0,0,0,0,0,0,0,0,0,0,0,0,0,0,0,0,0,0,0,0,0,0,0,0,0,0,0,0,0,0,0,0,0,0,0,0,0,0,0,0,0,0,
0,0,0,0,0,0,0,0,0,0,0,0,0,0,0,0,0,0,0,0,0,0,0,0,0,0,0,0,0,0,0,0,0,0,0,0,0,0,0,0,0,0,0,0,0,0,0,0,0,0,0,0,0,0,0,0,0,0,0,0,0,0,0,0,0,0,0,0,0,0,
0,0,0,0,0,0,0,0,0,0,0,0,0,0,0,0,0,0,0,0,0,0,0,0,0,0,0,0,0,0,0,0,0,0,0,0,0,0,0,0,0,0,0,0,0,0,0,0,0,0,0,0,0,0,0,0,0,0,0,0,0,0,0,0,0,0,0,0,0,0,
0,0,0,0,0,0,0,0,0,0,0,0,0,0,0,0,0,0,0,0,0,0,0,0,0,0,0,0,0,0,0,0,0,0,0,0,0,0,0,0,0,0,0,0,0,0,0,0,0,0,0,0,0,0,0,0,0,0,0,0,0,0,0,0,0,0,0,0,0,0,
0,0,0,0,0,0,0,0,0,0,0,0,0,0,0,0,0,0,0,0,0,0,0,0,0,0,0,0,0,0,0,0,0,0,0,0,0,0,0,0,0,0,0,0,0,0,0,0,0,0,0,0,0,0,0,0,0,0,0,0,0,0,0,0,0,0,0,0,0,0,
0,0,0,0,0,0,0,0,0,0,0,0,0,0,0,0,0,0,0,0,0,0,0,0,0,0,0,0,0,0,0,0,0,0,0,0,0,0,0,0,0,0,0,0,0,0,0,0,0,0,0,0,0,0,0,0,0,0,0,0,0,0,0,0,0,0,0,0,0,0,
0,0,0,0,0,0,0,0,0,0,0,0,0,0,0,0,0,0,0,0,0,0,0,0,0,0,0,0,0,0,0,0,0,0,0,0,0,0,0,0,0,0,0,0,0,0,0,0,0,0,0,0,0,0,0,0,0,0,0,0,0,0,0,0,0,0,0,0,0,0,
0,0,0,0,0,0,0,0,0,0,0,0,0,0,0,0,0,0,0,0,0,0,0,0,0,0,0,0,0,0,0,0,0,0,0,0,0,0,0,0,0,0,0,0,0,0,0,0,0,0,0,0,0,0,0,0,0,0,0,0,0,0,0,0,0,0,0,0,0,0,
0,0,0,0,0,0,0,0,0,0,0,0,0,0,0,0,0,0,0,0,0,0,0,0,0,0,0,0,0,0,0,0,0,0,0,0,0,0,0,0,0,0,0,0,0,0,0,0,0,0,0,0,0,0,0,0,0,0,0,0,0,0,0,0,0,0,0,0,0,0,
0,0,0,0,0,0,0,0,0,0,0,0,0,0,0,0,0,0,0,0,0,0,0,0,0,0,0,0,0,0,0,0,0,0,0,0,0,0,0,0,0,0,0,0,0,0,0,0,0,0,0,0,0,0,0,0,0,0,0,0,0,0,0,0,0,0,0,0,0,0,
0,0,0,0,0,0,0,0,0,0,0,0,0,0,0,0,0,0,0,0,0,0,0,0,0,0,0,0,0,0,0,0,0,0,0,0,0,0,0,0,0,0,0,0,0,0,0,0,0,0,0,0,0,0,0,0,0,0,0,0,0,0,0,0,0,0,0,0,0,0,
0,0,0,0,0,0,0,0,0,0,0,0,0,0,0,0,0,0,0,0,0,0,0,0,0,0,0,0,0,0,0,0,0,0,0,0,0,0,0,0,0,0,0,0,0,0,0,0,0,0,0,0,0,0,0,0,0,0,0,0,0,0,0,0,0,0,0,0,0,0,
0,0,0,0,0,0,0,0,0,0,0,0,0,0,0,0,0,0,0,0,0,0,0,0,0,0,0,0,0,0,0,0,0,0,0,0,0,0,0,0,0,0,0,0,0,0,0,0,0,0,0,0,0,0,0,0,0,0,0,0,0,0,0,0,0,0,0,0,0,0,
0,0,0,0,0,0,0,0,0,0,0,0,0,0,0,0,0,0,0,0,0,0,0,0,0,0,0,0,0,0,0,0,0,0,0,0,0,0,0,0,0,0,0,0,0,0,0,0,0,0,0,0,0,0,0,0,0,0,0,0,0,0,0,0,0,0,0,0,0,0,
0,0,0,0,0,0,0,0,0,0,0,0,0,0,0,0,0,0,0,0,0,0,0,0,0,0,0,0,0,0,0,0,0,0,0,0,0,0,0,0,0,0,0,0,0,0,0,0,0,0,0,0,0,0,0,0,0,0,0,0,0,0,0,0,0,0,0,0,0,0,
0,0,0,0,0,0,0,0,0,0,0,0,0,0,0,0,0,0,0,0,0,0,0,0,0,0,0,0,0,0,0,0,0,0,0,0,0,0,0,0,0,0,0,0,0,0,0,0,0,0,0,0,0,0,0,0,0,0,0,0,0,0,0,0,0,0,0,0,0,0,
0,0,0,0,0,0,0,0,0,0,0,0,0,0,0,0,0,0,0,0,0,0,0,0,0,0,0,0,0,0,0,0,0,0,0,0,0,0,0,0,0,0,0,0,0,0,0,0,0,0,0,0,0,0,0,0,0,0,0,0,0,0,0,0,0,0,0,0,0,0,
0,0,0,0,0,0,0,0,0,0,0,0,0,0,0,0,0,0,0,0,0,0,0,0,0,0,0,0,0,0,0,0,0,0,0,0,0,0,0,0,0,0,0,0,0,0,0,0,0,0,0,0,0,0,0,0,0,0,0,0,0,0,0,0,0,0,0,0,0,0,
0,0,0,0,0,0,0,0,0,0,0,0,0,0,0,0,0,0,0,0,0,0,0,0,0,0,0,0,0,0,0,0,0,0,0,0,0,0,0,0,0,0,0,0,0,0,0,0,0,0,0,0,0,0,0,0,0,0,0,0,0,0,0,0,0,0,0,0,0,0,
0,0,0,0,0,0,0,0,0,0,0,0,0,0,0,0,0,0,0,0,0,0,0,0,0,0,0,0,0,0,0,0,0,0,0,0,0,0,0,0,0,0,0,0,0,0,0,0,0,0,0,0,0,0,0,0,0,0,0,0,0,0,0,0,0,0,0,0,0,0,
0,0,0,0,0,0,0,0,0,0,0,0,0,0,0,0,0,0,0,0,0,0,0,0,0,0,0,0,0,0,0,0,0,0,0,0,0,0,0,0,0,0,0,0,0,0,0,0,0,0,0,0,0,0,0,0,0,0,0,0,0,0,0,0,0,0,0,0,0,0,
0,0,0,0,0,0,0,0,0,0,0,0,0,0,0,0,0,0,0,0,0,0,0,0,0,0,0,0,0,0,0,0,0,0,0,0,0,0,0,0,0,0,0,0,0,0,0,0,0,0,0,0,0,0,0,0,0,0,0,0,0,0,0,0,0,0,0,0,0,0,
0,0,0,0,0,0,0,0,0,0,0,0,0,0,0,0,0,0,0,0,0,0,0,0,0,0,0,0,0,0,0,0,0,0,0,0,0,0,0,0,0,0,0,0,0,0,0,0,0,0,0,0,0,0,0,0,0,0,0,0,0,0,0,0,0,0,0,0,0,0,
0,0,0,0,0,0,0,0,0,0,0,0,0,0,0,0,0,0,0,0,0,0,0,0,0,0,0,0,0,0,0,0,0,0,0,0,0,0,0,0,0,0,0,0,0,0,0,0,0,0,0,0,0,0,0,0,0,0,0,0,0,0,0,0,0,0,0,0,0,0,
0,0,0,0,0,0,0,0,0,0,0,0,0,0,0,0,0,0,0,0,0,0,0,0,0,0,0,0,0,0,0,0,0,0,0,0,0,0,0,0,0,0,0,0,0,0,0,0,0,0,0,0,0,0,0,0,0,0,0,0,0,0,0,0,0,0,0,0,0,0,
0,0,0,0,0,0,0,0,0,0,0,0,0,0,0,0,0,0,0,0,0,0,0,0,0,0,0,0,0,0,0,0,0,0,0,0,0,0,0,0,0,0,0,0,0,0,0,0,0,0,0,0,0,0,0,0,0,0,0,0,0,0,0,0,0,0,0,0,0,0,
0,0,0,0,0,0,0,0,0,0,0,0,0,0,0,0,0,0,0,0,0,0,0,0,0,0,0,0,0,0,0,0,0,0,0,0,0,0,0,0,0,0,0,0,0,0,0,0,0,0,0,0,0,0,0,0,0,0,0,0,0,0,0,0,0,0,0,0,0,0,
0,0,0,0,0,0,0,0,0,0,0,0,0,0,0,0,0,0,0,0,0,0,0,0,0,0,0,0,0,0,0,0,0,0,0,0,0,0,0,0,0,0,0,0,0,0,0,0,0,0,0,0,0,0,0,0,0,0,0,0,0,0,0,0,0,0,0,0,0,0,
0,0,0,0,0,0,0,0,0,0,0,0,0,0,0,0,0,0,0,0,0,0,0,0,0,0,0,0,0,0,0,0,0,0,0,0,0,0,0,0,0,0,0,0,0,0,0,0,0,0,0,0,0,0,0,0,0,0,0,0,0,0,0,0,0,0,0,0,0,0
</data>
 </layer>
 <layer id="4" name="deco" width="70" height="40">
  <data encoding="csv">
0,521,0,2684355020,0,0,0,0,0,0,0,2684355020,0,0,0,3221225963,0,0,0,1610613257,0,429,0,524,0,456,0,0,0,0,0,0,482,0,0,0,0,0,523,0,0,0,0,0,0,0,0,0,0,428,0,0,0,483,0,0,523,0,0,0,0,0,0,0,0,0,0,0,0,525,
0,0,0,0,0,366,0,0,0,0,0,0,0,0,0,0,0,0,0,0,0,0,0,0,0,0,0,0,0,0,0,0,0,0,0,0,0,0,0,0,0,0,0,0,0,0,0,0,0,0,0,0,0,0,0,0,0,0,0,0,0,0,0,0,0,0,0,0,521,0,
459,0,0,0,0,2684354983,0,0,0,0,0,0,0,0,0,0,0,0,0,0,0,0,0,0,0,0,0,0,0,0,0,0,0,0,0,0,0,0,0,0,0,0,0,0,0,0,0,0,0,0,0,0,0,0,0,0,0,0,0,0,0,0,0,0,0,0,0,0,525,0,
429,0,0,2684355013,2684355017,0,0,0,0,0,0,0,0,0,0,0,0,0,0,0,0,0,0,0,0,0,0,0,0,0,0,459,0,0,0,0,0,0,0,0,0,0,0,0,0,0,0,0,0,0,0,0,0,0,0,0,0,0,0,0,0,0,0,0,0,0,0,0,0,0,
0,0,2684354988,2684355050,0,0,0,0,0,0,0,0,0,0,0,0,0,0,0,0,2684355052,0,0,0,0,0,0,0,0,0,0,0,0,0,0,0,0,459,0,0,0,0,0,0,0,0,0,0,0,0,0,0,0,418,0,0,0,0,0,0,0,0,0,0,0,0,0,0,0,0,
0,0,0,0,0,0,0,0,0,0,0,0,0,0,0,0,2684354981,0,0,0,0,0,0,0,0,0,0,0,0,0,0,0,0,0,0,0,0,0,0,0,0,0,0,0,0,0,0,0,0,0,0,0,0,0,0,0,0,0,0,0,0,0,0,0,0,0,0,0,0,0,
0,0,0,0,0,0,0,0,0,0,0,0,0,0,0,0,0,0,0,0,0,0,0,0,0,0,0,0,0,0,0,0,0,0,0,0,0,424,0,0,0,0,0,0,0,0,0,0,0,0,0,0,0,0,0,0,0,0,0,0,0,0,0,0,0,0,0,0,0,0,
0,0,0,0,0,0,0,0,0,0,0,0,0,0,0,0,0,0,0,0,0,0,0,0,0,0,0,0,0,0,0,0,0,424,0,0,459,0,0,0,0,0,0,0,0,482,0,0,0,0,0,0,0,0,0,0,0,0,0,0,0,0,0,0,0,0,0,0,0,0,
366,0,0,0,0,0,0,0,0,0,0,0,0,0,0,0,0,0,0,0,0,0,0,0,0,0,0,0,0,0,0,0,0,0,0,0,0,0,0,0,0,0,0,0,0,0,0,0,0,0,0,0,0,0,0,0,0,0,0,0,0,0,2684355015,0,0,0,0,0,0,0,
1610613260,0,0,0,0,0,0,0,0,0,0,0,0,0,0,0,0,0,0,0,0,0,0,0,0,0,0,0,0,0,0,0,0,0,0,0,0,0,0,0,0,0,0,0,0,0,0,0,0,0,0,0,0,0,0,0,0,0,0,0,0,0,0,0,0,0,0,0,0,0,
0,0,0,0,0,0,0,0,0,0,0,0,0,0,0,0,0,0,0,0,0,0,0,0,0,0,0,0,0,0,0,0,0,0,0,0,0,0,0,0,0,0,0,418,425,0,0,0,0,0,0,0,0,0,0,0,0,0,0,0,0,0,0,2684354984,0,0,0,0,0,422,
489,0,0,0,0,0,0,0,0,0,0,0,0,0,0,0,0,0,0,0,0,0,0,0,0,0,0,0,482,0,0,0,0,0,0,0,0,0,0,0,0,0,0,0,457,0,0,0,0,0,0,0,0,0,0,0,0,0,0,0,0,0,0,0,0,0,0,0,0,0,
0,0,0,0,0,0,0,0,0,0,0,0,0,0,0,0,0,0,0,0,0,0,0,0,0,0,0,0,0,0,0,0,0,0,0,0,0,0,0,0,0,0,0,0,487,0,0,0,0,0,0,0,0,0,0,0,0,0,0,0,0,0,0,0,0,0,0,0,0,2684355053,
424,0,0,2684355082,0,0,0,0,0,0,0,0,0,0,0,0,0,0,0,0,0,0,0,0,0,0,0,0,0,0,0,0,0,0,0,0,0,0,0,0,0,0,0,0,0,0,0,0,0,487,0,0,0,0,0,0,0,0,0,0,0,0,0,0,0,0,0,0,0,0,
0,0,0,0,0,0,0,0,0,0,0,0,456,0,0,0,0,482,428,0,0,0,0,0,0,0,0,0,0,0,0,0,0,0,0,0,0,0,0,0,0,0,0,0,0,0,0,0,0,0,0,0,0,0,0,0,0,0,0,0,0,0,0,0,0,0,0,0,0,0,
0,0,0,0,0,0,0,0,0,0,0,0,453,0,0,0,0,0,0,0,0,0,0,0,0,0,0,0,0,0,0,0,0,0,0,0,0,0,0,0,0,0,0,0,0,0,0,0,0,0,0,0,0,0,0,0,0,2684355017,0,0,0,0,0,0,0,0,0,0,0,0,
1610613196,0,0,0,0,2684355014,0,0,0,0,0,0,0,0,0,0,0,0,0,482,457,0,0,0,0,0,0,0,0,0,0,0,0,0,0,0,0,0,0,0,0,0,0,0,0,0,0,0,0,0,0,0,0,0,0,0,0,0,0,0,0,0,0,0,0,0,0,0,0,0,
0,0,0,0,0,0,0,0,0,0,0,0,0,0,0,0,0,450,0,486,0,0,0,0,0,0,0,0,0,0,0,0,0,0,0,0,0,0,0,0,0,0,0,0,0,0,0,0,0,0,0,0,0,0,0,2684355013,0,0,0,0,0,0,0,0,0,0,0,0,0,504,
0,0,2684355020,0,0,0,0,0,0,0,0,0,453,0,0,0,0,0,0,0,460,525,0,428,0,0,0,0,0,0,0,0,0,0,0,0,0,0,0,0,0,0,0,0,0,0,0,0,0,0,0,0,0,0,0,0,0,0,0,0,0,0,0,0,0,0,0,0,0,0,
3221225899,0,2684354982,0,0,0,0,335,336,0,0,455,0,0,0,0,0,0,0,0,0,461,0,0,0,0,0,0,0,0,0,0,0,0,0,0,0,0,0,0,0,0,0,0,0,0,0,0,0,0,0,0,0,0,0,0,0,0,0,0,0,2684355045,0,0,0,0,0,0,0,0,
0,0,0,0,0,0,0,367,368,0,525,0,0,450,487,0,0,0,0,0,0,0,0,0,0,0,0,0,0,0,0,0,0,0,0,0,0,0,0,0,0,0,0,0,0,0,0,0,0,0,0,0,0,0,0,2684354985,0,0,0,0,0,0,0,0,0,2684355081,0,0,2684355017,0,
2684354985,0,0,0,0,0,2684355051,453,456,0,0,486,418,490,0,0,0,0,0,0,0,0,0,0,0,0,0,0,0,0,0,0,0,0,0,0,0,0,0,0,0,0,0,0,0,0,0,0,0,0,0,0,0,0,0,0,0,0,0,0,0,0,0,0,0,0,0,0,0,0,
0,0,0,0,0,0,0,0,0,0,0,490,0,487,0,0,0,487,0,0,0,0,487,0,0,0,0,0,0,0,0,0,0,0,0,0,0,0,0,0,0,0,0,0,0,0,0,0,0,0,0,0,0,0,0,0,0,0,0,0,0,0,0,0,0,0,0,0,0,0,
427,0,0,0,0,0,0,0,0,0,455,0,490,0,0,0,0,0,0,0,0,0,0,0,0,0,0,0,0,0,0,0,0,0,0,0,0,0,0,0,0,0,0,0,0,0,0,0,0,0,0,0,0,0,0,0,0,0,0,0,0,0,0,0,0,0,0,0,0,0,
0,2684355084,2684355080,0,0,0,0,0,0,0,0,0,0,0,0,0,0,0,0,0,0,0,0,0,0,0,0,0,0,0,0,0,0,0,0,0,2684355016,2684354989,0,0,0,0,0,0,0,0,0,0,0,0,0,0,0,0,0,0,0,0,0,0,0,0,0,0,0,0,0,0,2684355044,0,
0,0,0,0,0,0,0,0,0,0,0,0,0,0,0,0,0,420,0,0,0,0,0,0,0,0,0,0,0,0,0,0,0,0,0,0,2684354984,0,0,0,0,0,0,0,0,0,0,0,0,0,0,0,0,0,0,2684355014,2684355052,0,0,0,0,2684355044,2684354988,0,0,0,0,0,0,0,
0,0,0,0,0,0,0,0,0,0,0,0,0,0,0,0,0,0,0,0,0,0,0,0,0,0,0,0,0,0,0,0,0,0,0,0,0,0,0,0,0,0,0,0,0,0,0,0,0,0,0,0,0,0,0,0,2684354980,0,0,0,0,0,0,0,0,0,0,0,0,0,
0,0,0,0,0,0,0,0,0,0,0,0,131,0,0,0,0,0,0,0,0,0,0,0,0,0,0,0,0,0,0,0,0,0,0,0,0,0,0,0,0,0,0,0,0,0,0,0,0,0,0,0,0,0,0,0,0,0,0,0,0,0,0,0,0,0,0,0,0,422,
0,0,0,0,0,2684355084,0,0,0,0,0,0,0,0,0,0,0,0,0,0,0,0,0,0,0,0,0,0,0,0,0,0,0,0,0,0,0,0,0,2684355084,0,0,0,0,0,0,0,0,0,0,0,0,0,0,0,0,0,0,0,0,0,0,0,2684355043,0,0,0,0,0,0,
1610613194,0,0,0,0,0,0,0,0,0,0,0,131,0,0,0,0,0,0,487,0,0,487,0,0,0,0,0,0,0,0,0,424,2684354989,482,418,2684355048,2684355021,0,0,0,0,0,0,0,0,0,0,0,0,0,0,0,0,0,0,0,0,0,0,0,0,0,0,0,0,0,0,0,0,
0,0,0,2684355044,0,0,0,0,0,2684355021,0,0,0,0,0,0,0,0,0,0,0,0,0,0,0,0,0,0,0,0,0,0,0,0,0,0,0,0,0,0,0,0,0,0,0,0,0,0,0,0,0,0,0,0,0,0,0,0,0,0,0,0,0,0,0,0,0,0,0,0,
0,0,0,0,0,0,0,0,0,0,0,0,0,0,0,0,0,0,0,0,0,460,0,0,0,0,0,0,0,0,0,0,0,0,0,0,0,0,0,2684355084,0,0,0,0,0,0,0,0,0,0,0,0,0,0,0,0,0,0,0,0,0,0,0,0,0,0,0,0,0,0,
458,0,0,0,0,0,0,0,0,0,0,0,2684354988,0,0,0,0,0,0,0,0,0,0,0,0,0,0,0,0,0,0,0,0,0,0,522,0,0,0,0,0,0,0,0,0,0,0,0,0,0,0,0,0,0,0,0,0,0,0,0,0,0,0,0,0,0,0,0,0,0,
0,0,0,0,0,0,0,2684354982,0,0,2684354982,2684355018,2684355017,0,0,0,0,0,0,0,0,0,0,0,0,0,0,0,0,0,0,0,0,0,0,0,0,0,0,0,0,0,0,0,0,0,0,0,0,0,0,0,2684354987,0,0,0,0,0,0,0,0,0,0,0,0,0,2684355048,2684354987,0,0,
0,0,0,0,0,0,0,0,0,0,2684354983,0,0,0,0,0,0,0,0,0,0,0,0,0,0,0,0,0,0,0,0,0,0,0,0,418,0,0,0,0,0,0,0,0,0,0,0,0,0,0,0,0,0,0,0,0,0,0,0,0,0,0,0,0,0,0,2684355043,2684355013,0,0,
0,0,0,0,0,0,0,0,0,0,0,0,0,0,0,0,0,0,0,0,0,0,0,2684354986,2684355012,0,0,0,0,0,0,0,0,0,0,0,0,483,0,0,0,0,0,0,0,0,0,0,0,0,0,0,0,0,0,0,0,0,0,0,0,0,0,0,0,0,0,0,0,424,
0,0,0,0,0,0,0,0,0,0,0,0,0,0,0,0,0,0,0,0,0,0,0,0,0,0,0,0,0,0,0,0,0,0,483,0,0,0,0,0,0,0,2684355049,0,0,0,0,0,0,0,0,0,0,0,2684354984,2684355017,0,0,0,0,0,2684355044,0,0,0,0,0,0,0,0,
0,0,0,0,0,0,0,0,0,0,0,0,2684355051,0,0,0,0,0,0,0,2684355013,0,0,0,2684355082,0,0,0,0,483,0,0,0,0,0,489,0,0,0,0,0,0,0,0,0,0,0,0,0,0,0,0,2684354984,0,0,0,0,0,0,2684354981,0,0,0,0,0,0,0,0,0,0,
0,0,0,0,0,0,0,0,429,0,0,0,0,0,488,0,0,0,0,458,0,0,0,0,461,0,0,0,426,0,0,458,0,0,0,0,0,0,0,0,0,0,0,0,0,0,0,0,0,0,0,0,0,0,0,0,0,0,0,0,0,0,0,0,458,0,454,429,0,0,
0,0,0,0,0,0,0,0,0,0,0,0,0,0,0,0,0,0,0,0,2684355048,0,0,0,0,0,0,0,0,0,0,0,0,0,0,0,0,0,0,0,0,0,0,0,0,0,0,0,0,0,0,0,0,0,0,0,0,0,0,0,0,0,0,0,0,0,0,0,0,0
</data>
 </layer>
 <group id="11" name="house">
  <layer id="6" name="porte" width="70" height="40">
   <data encoding="csv">
0,0,0,0,0,0,0,0,0,0,0,0,0,0,0,0,0,0,0,0,0,0,0,0,0,0,0,0,0,0,0,0,0,0,0,0,0,0,0,0,0,0,0,0,0,0,0,0,0,0,0,0,0,0,0,0,0,0,0,0,0,0,0,0,0,0,0,0,0,0,
0,0,0,0,0,0,0,0,0,0,0,0,0,0,0,0,0,0,0,0,0,0,0,0,0,0,0,0,0,0,0,0,0,0,0,0,0,0,0,0,0,0,0,0,0,0,0,0,0,0,0,0,0,0,0,0,0,0,0,0,0,0,0,0,0,0,0,0,0,0,
0,0,0,0,0,0,0,0,0,0,0,0,0,0,0,0,0,0,0,0,0,0,0,0,0,0,0,0,0,0,0,0,0,0,0,0,0,0,0,0,0,0,0,0,0,0,0,0,0,0,0,0,0,0,0,0,0,0,0,0,0,0,0,0,0,0,0,0,0,0,
0,0,0,0,0,0,0,0,0,0,0,0,0,0,0,0,0,0,0,0,0,0,0,0,0,0,0,0,0,0,0,0,0,0,0,0,0,0,0,0,0,0,0,0,0,0,0,0,0,0,0,0,0,0,0,0,0,0,0,0,0,0,0,0,0,0,0,0,0,0,
0,0,0,0,0,0,0,0,0,0,0,0,0,0,0,0,0,0,0,0,0,0,0,0,0,0,0,0,0,0,0,0,0,0,0,0,0,0,0,0,0,0,0,0,0,0,0,0,0,0,0,0,0,0,0,0,0,0,0,0,0,0,0,0,0,0,0,0,0,0,
0,0,0,0,0,0,0,0,0,0,0,0,0,0,0,0,0,0,0,0,0,0,0,0,0,0,165,166,0,0,0,0,0,0,0,0,0,0,0,0,0,0,0,0,0,0,0,0,0,0,0,0,0,0,0,0,0,0,0,0,0,0,0,0,0,0,0,0,0,0,
0,0,0,0,0,0,0,0,0,0,0,0,0,0,0,0,0,0,0,0,0,0,0,0,0,0,197,198,0,0,0,0,0,0,0,0,0,0,0,0,0,0,0,0,0,0,0,0,0,0,0,0,0,0,0,0,0,0,0,0,0,0,0,0,0,0,0,0,0,0,
0,0,0,0,0,0,0,0,0,0,0,0,0,0,0,0,0,0,0,0,0,0,0,0,0,0,0,0,0,0,0,0,0,0,0,0,0,0,0,0,0,0,0,0,0,0,0,0,0,0,0,0,0,0,0,0,0,0,0,0,0,0,0,0,0,0,0,0,0,0,
0,0,0,0,0,0,0,0,0,0,0,0,0,0,0,0,0,0,0,0,0,0,0,0,0,0,0,0,0,0,0,0,0,0,0,0,0,0,0,0,0,0,0,0,0,0,0,0,0,0,0,0,0,0,0,0,0,0,0,0,0,0,0,0,0,0,0,0,0,0,
0,0,0,0,0,0,0,0,165,166,0,0,0,0,0,0,0,0,0,0,0,0,0,0,0,0,0,0,0,0,0,0,0,0,0,0,0,0,0,0,0,0,0,0,0,0,0,0,0,0,0,0,0,0,0,0,0,0,0,0,0,0,0,0,0,0,0,0,0,0,
0,0,0,0,0,0,0,0,197,198,0,0,0,0,0,0,0,0,0,0,0,0,0,0,0,0,0,0,0,0,0,0,0,0,0,0,0,0,0,0,0,0,0,0,0,0,0,0,0,0,0,0,0,0,0,0,0,0,0,0,0,0,0,0,0,0,0,0,0,0,
0,0,0,0,0,0,0,0,0,0,0,0,0,0,0,0,0,0,0,0,0,0,0,0,0,0,0,0,0,0,0,0,0,0,0,0,0,0,0,0,0,0,0,0,0,0,0,0,0,0,0,0,0,0,0,0,0,0,0,0,0,0,0,0,0,0,0,0,0,0,
0,0,0,0,0,0,0,0,0,0,0,0,0,0,0,0,0,0,0,0,0,0,0,0,0,0,0,0,0,0,0,0,0,0,0,0,0,0,0,0,0,0,0,0,0,0,165,166,0,0,0,0,0,0,0,0,0,0,0,0,0,0,0,0,0,0,0,0,0,0,
0,0,0,0,0,0,0,0,0,0,0,0,0,0,0,0,0,0,0,0,0,0,0,0,0,0,0,0,0,0,0,0,0,0,0,0,0,0,0,0,0,0,0,0,0,0,197,198,0,0,0,0,0,0,0,0,0,0,0,0,0,0,0,0,0,0,0,0,0,0,
0,0,0,0,0,0,0,0,0,0,0,0,0,0,0,0,0,0,0,0,0,0,0,0,0,0,0,0,0,0,0,0,0,0,0,0,0,0,0,0,0,0,0,0,0,0,0,0,231,0,0,0,0,0,0,0,0,0,0,0,0,0,0,0,0,0,0,0,0,0,
0,0,0,0,0,0,0,0,0,0,0,0,0,0,0,0,0,0,0,0,0,0,0,0,0,0,0,0,0,0,0,0,0,0,0,0,0,0,0,0,0,0,0,0,0,0,0,0,0,0,0,0,0,0,0,0,0,0,0,0,0,0,0,0,0,0,0,0,0,0,
0,0,0,0,0,0,0,0,0,0,0,0,0,0,0,0,0,0,0,0,0,0,0,0,0,0,0,0,0,0,0,0,0,0,0,0,0,0,0,0,0,0,0,0,0,0,0,0,0,0,0,0,0,0,0,0,0,0,0,0,0,0,0,0,0,0,0,0,0,0,
0,0,0,0,0,0,0,0,0,0,0,0,0,0,165,166,0,0,0,0,0,0,0,0,0,0,0,0,0,0,0,0,0,0,0,0,0,0,0,0,0,0,0,0,0,0,0,0,0,0,0,0,0,0,0,0,0,0,0,0,0,0,0,0,0,0,0,0,0,0,
0,0,0,0,0,0,0,0,0,0,0,0,0,0,197,198,0,0,0,0,0,0,0,0,0,0,0,0,0,0,0,0,0,0,0,0,0,0,0,0,0,0,0,0,0,0,0,0,0,0,0,0,0,0,0,0,0,0,0,0,0,0,0,0,0,0,0,0,0,0,
0,0,0,0,0,0,0,0,0,0,0,0,0,0,0,0,0,0,0,0,0,0,0,0,0,0,0,0,0,0,0,0,0,0,0,0,0,0,0,0,0,0,0,0,0,0,0,0,0,0,0,0,0,0,0,0,0,0,0,0,0,0,0,0,0,0,0,0,0,0,
0,0,0,0,0,0,0,0,0,0,0,0,0,0,0,0,0,0,0,0,0,0,0,0,0,0,0,0,0,0,0,0,0,0,0,0,0,0,0,0,0,0,0,0,0,0,0,0,0,0,0,0,0,0,0,0,0,0,0,0,0,0,0,0,0,0,0,0,0,0,
0,0,0,0,0,0,0,0,0,0,0,0,0,0,0,0,0,0,0,0,0,0,0,0,0,0,0,0,0,0,0,0,0,0,0,0,0,0,0,0,0,0,0,0,0,0,0,0,0,0,0,0,0,0,0,0,0,0,0,0,0,0,0,0,0,0,0,0,0,0,
0,0,0,0,0,0,0,0,0,0,0,0,0,0,0,0,0,0,0,0,0,0,0,0,0,0,0,0,0,0,0,0,0,0,0,0,0,0,0,0,0,0,0,0,0,0,0,0,0,0,0,0,0,0,0,0,0,0,0,0,0,0,0,0,0,0,0,0,0,0,
0,0,0,0,0,0,0,0,0,0,0,0,0,0,0,0,0,0,0,0,0,0,0,0,0,0,0,0,0,0,0,0,0,0,0,0,0,0,0,0,0,0,0,0,0,0,0,0,0,0,0,0,0,0,0,0,0,0,0,0,0,0,0,0,0,0,0,0,0,0,
0,0,0,0,0,0,0,0,0,0,0,0,0,0,0,0,0,0,0,0,0,0,0,0,0,0,0,0,0,0,0,0,0,0,0,0,0,0,0,0,0,0,0,0,0,0,0,0,0,0,0,0,0,0,0,0,0,0,0,0,0,0,0,0,0,0,0,0,0,0,
0,0,0,0,0,0,0,0,0,0,0,0,0,0,0,0,0,0,0,0,0,0,0,0,0,0,0,0,0,0,0,0,0,0,0,0,0,0,0,0,0,0,0,0,0,0,0,0,0,0,0,0,0,0,0,0,0,0,0,0,0,0,0,0,0,0,0,0,0,0,
0,0,0,0,0,0,0,0,0,0,0,0,0,0,0,0,0,0,0,0,0,0,0,0,0,0,0,0,0,0,0,0,0,0,0,0,0,0,0,0,0,0,0,0,0,0,0,0,0,0,0,0,0,0,0,0,0,0,0,0,0,0,0,0,0,0,0,0,0,0,
0,0,0,0,0,0,0,0,0,0,0,0,0,0,0,0,0,0,0,0,171,172,0,0,0,171,172,0,0,0,0,0,0,0,0,0,0,0,0,0,0,0,0,0,0,0,0,0,0,0,0,0,0,0,0,0,0,0,0,0,0,0,0,0,0,0,0,0,0,0,
0,0,0,0,0,0,0,0,0,0,0,0,0,0,0,0,0,0,0,0,203,204,0,0,0,203,204,0,0,0,0,0,0,0,0,0,0,0,0,0,0,0,0,0,0,0,0,0,0,0,0,0,0,0,0,0,0,0,0,0,0,0,0,0,0,0,0,0,0,0,
0,0,0,0,0,0,0,0,0,0,0,0,0,0,0,0,0,0,0,0,0,0,0,0,0,0,467,501,0,0,0,0,0,0,0,0,0,0,0,0,0,0,0,0,0,0,0,0,0,0,0,0,0,0,0,0,0,0,0,0,0,0,0,0,0,0,0,0,0,0,
0,0,0,0,0,0,0,0,0,0,0,0,0,0,0,0,0,0,0,0,0,0,0,0,0,0,437,469,0,0,0,0,0,0,0,0,0,0,0,0,0,0,0,0,0,0,0,0,0,0,0,0,0,0,0,0,0,0,0,0,0,0,0,0,0,0,0,0,0,0,
0,0,0,0,0,0,0,0,0,0,0,0,0,0,0,0,0,0,0,0,0,0,0,0,0,0,0,0,0,0,0,0,0,0,0,0,0,0,0,0,0,0,0,0,0,0,0,0,0,0,0,0,0,0,0,0,0,0,165,166,0,0,0,0,0,0,0,0,0,0,
0,0,0,0,0,0,0,0,0,0,0,0,0,0,0,0,0,0,0,0,0,0,0,0,0,0,0,0,0,0,0,0,0,0,0,0,0,0,0,0,0,0,0,0,0,0,0,0,0,0,0,0,0,0,0,0,0,0,197,198,0,0,0,0,0,0,0,0,0,0,
0,0,0,0,0,0,0,0,0,0,0,0,0,0,0,0,0,0,0,0,0,0,0,0,0,0,0,0,0,0,0,0,0,0,0,0,0,0,0,0,0,0,0,0,2684354757,2684354725,0,0,0,0,0,0,0,0,0,0,0,0,0,0,0,0,0,0,0,0,0,0,0,0,
0,0,0,0,0,0,0,0,0,0,0,0,0,0,0,0,0,0,0,0,0,0,0,0,0,0,0,0,0,0,0,0,0,0,0,0,0,0,0,0,0,0,0,0,2684354758,2684354726,0,0,0,0,0,0,0,0,0,0,0,0,0,0,0,0,0,0,0,0,0,0,0,0,
0,0,0,0,0,0,1610612902,1610612934,0,0,0,0,0,0,0,0,0,0,0,0,0,0,0,0,0,0,0,0,0,0,0,0,0,0,0,0,0,0,0,0,0,0,0,0,0,0,0,0,0,0,0,0,0,0,0,0,0,0,0,0,0,0,0,0,0,0,0,0,0,0,
0,0,0,0,0,0,1610612901,1610612933,0,0,0,0,0,0,0,0,0,0,0,0,0,0,0,0,0,0,0,0,0,0,0,0,0,0,0,0,0,0,0,0,0,0,0,0,0,0,0,0,0,0,0,0,0,0,0,0,0,0,0,0,0,0,0,0,0,0,0,0,0,0,
0,0,0,0,0,0,0,0,0,0,0,0,0,0,0,0,0,0,0,0,0,0,0,0,0,0,0,0,0,0,0,0,0,0,0,0,0,0,0,0,0,0,0,0,0,0,0,0,0,0,0,0,0,0,0,0,0,0,0,0,0,0,0,0,0,0,0,0,0,0,
0,0,0,0,0,0,0,0,0,0,0,0,0,0,0,0,0,0,0,0,0,0,0,0,0,0,0,0,0,0,0,0,0,0,0,0,0,0,0,0,0,0,0,0,0,0,0,0,0,0,0,0,0,0,0,0,0,0,0,0,0,0,0,0,0,0,0,0,0,0,
0,0,0,0,0,0,0,0,0,0,0,0,0,0,0,0,0,0,0,0,0,0,0,0,0,0,0,0,0,0,0,0,0,0,0,0,0,0,0,0,0,0,0,0,0,0,0,0,0,0,0,0,0,0,0,0,0,0,0,0,0,0,0,0,0,0,0,0,0,0
</data>
  </layer>
  <layer id="12" name="mur4" width="70" height="40">
   <data encoding="csv">
0,0,0,0,0,0,0,0,0,0,0,0,0,0,0,0,0,0,0,0,0,0,0,0,0,0,5,6,0,0,0,0,0,0,0,0,0,0,0,0,0,0,0,0,0,0,0,0,0,0,0,0,0,0,0,0,0,0,0,0,0,0,0,0,0,0,0,0,0,0,
0,0,0,0,0,0,0,0,0,0,0,0,0,0,0,0,0,0,0,0,0,0,0,0,0,36,37,38,39,0,0,0,0,0,0,0,0,0,0,0,0,0,0,0,0,0,0,0,0,0,0,0,0,0,0,0,0,0,0,0,0,0,0,0,0,0,0,0,0,0,
0,0,0,0,0,0,0,0,0,0,0,0,0,0,0,0,0,0,0,0,0,0,0,0,0,68,69,70,71,0,0,0,0,0,0,0,0,0,0,0,0,0,0,0,0,0,0,0,0,0,0,0,0,0,0,0,0,0,0,0,0,0,0,0,0,0,0,0,0,0,
0,0,0,0,0,0,0,0,0,0,0,0,0,0,0,0,0,0,0,0,0,0,0,0,0,100,101,102,103,0,0,0,0,0,0,0,0,0,0,0,0,0,0,0,0,0,0,0,0,0,0,0,0,0,0,0,0,0,0,0,0,0,0,0,0,0,0,0,0,0,
0,0,0,0,0,0,0,0,5,6,0,0,0,0,0,0,0,0,0,0,0,0,0,0,0,132,133,134,135,0,231,0,0,0,0,0,0,0,0,0,0,0,0,0,0,0,0,0,0,0,0,0,0,0,0,0,0,0,0,0,0,0,0,0,0,0,0,0,0,0,
0,0,0,0,0,0,0,36,37,38,39,0,0,0,0,0,0,0,0,0,0,0,0,0,0,164,0,0,167,0,0,0,0,0,0,0,0,0,0,0,0,0,0,0,0,0,0,0,0,0,0,0,0,0,0,0,0,0,0,0,0,0,0,0,0,0,0,0,0,0,
0,0,0,0,0,0,0,68,69,70,71,0,0,0,0,0,0,0,0,0,0,0,0,0,0,196,0,0,199,0,0,0,0,0,0,0,0,0,0,0,0,0,0,0,0,0,0,0,0,0,0,0,0,0,0,0,0,0,0,0,0,0,0,0,0,0,0,0,0,0,
0,0,0,0,0,0,0,100,101,102,103,0,0,0,0,0,0,0,0,0,0,0,0,0,0,0,0,0,0,0,0,0,0,0,0,0,0,0,0,0,0,0,0,0,0,0,5,6,0,0,0,0,0,0,0,0,0,0,0,0,0,0,0,0,0,0,0,0,0,0,
0,0,0,0,0,0,0,132,133,134,135,0,0,0,0,0,0,0,0,0,0,0,0,0,0,0,0,0,0,0,0,0,0,0,0,0,0,0,0,0,0,0,0,0,0,36,37,38,39,0,0,0,0,0,0,0,0,0,0,0,0,0,0,0,0,0,0,0,0,0,
0,0,0,0,0,0,0,164,0,0,167,0,0,0,0,0,0,0,0,0,0,0,0,0,0,0,0,0,0,0,0,0,0,0,0,0,0,0,0,0,0,0,0,0,0,68,69,70,71,0,0,0,0,0,0,0,0,0,0,0,0,0,0,0,0,0,0,0,0,0,
0,0,0,0,0,0,0,196,0,0,199,0,201,0,0,0,0,0,0,0,0,0,0,0,0,0,0,0,0,0,0,0,0,0,0,0,0,0,0,0,0,0,0,0,0,100,101,102,103,0,0,0,0,0,0,0,0,0,0,0,0,0,0,0,0,0,0,0,0,0,
0,0,0,0,0,0,0,0,0,0,0,0,0,0,0,0,0,0,0,0,0,0,0,0,0,0,0,0,0,0,0,0,0,0,0,0,0,0,0,0,0,0,0,0,0,132,133,134,135,0,0,0,0,0,0,0,0,0,0,0,0,0,0,0,0,0,0,0,0,0,
0,0,0,0,0,0,0,0,0,0,0,0,0,0,5,6,0,0,0,0,0,0,0,0,0,0,0,0,0,0,0,0,0,0,0,0,0,0,0,0,0,0,0,0,0,164,0,0,167,0,0,0,0,0,0,0,0,0,0,0,0,0,0,0,0,0,0,0,0,0,
0,0,0,0,0,0,0,0,0,0,0,0,0,36,37,38,39,0,0,0,0,0,0,0,0,0,0,0,0,0,0,0,0,0,0,0,0,0,0,0,0,0,0,0,0,196,0,0,199,0,0,0,0,0,0,0,0,0,0,0,0,0,0,0,0,0,0,0,0,0,
0,0,0,0,0,0,0,0,0,0,0,0,0,68,69,70,71,0,0,0,0,0,0,0,0,0,0,0,0,0,0,0,0,0,0,0,0,0,0,0,0,0,0,0,0,0,0,0,0,0,0,0,0,0,0,0,0,0,0,0,0,0,0,0,0,0,0,0,0,0,
0,0,0,0,0,0,0,0,0,0,0,0,0,100,101,102,103,0,0,0,0,0,0,0,0,0,0,0,0,0,0,0,0,0,0,0,0,0,0,0,0,0,0,0,0,0,0,0,0,0,0,0,0,201,0,0,0,0,0,0,0,0,0,0,0,0,0,0,0,0,
0,0,0,0,0,0,0,0,0,0,0,0,0,132,133,134,135,0,0,0,0,0,0,0,0,0,0,0,0,0,0,0,0,0,0,0,0,0,0,0,0,0,0,0,0,0,0,0,0,0,0,0,0,0,0,0,0,0,0,0,0,0,0,0,0,0,0,0,0,0,
0,0,0,0,0,0,0,0,0,0,0,0,0,164,0,0,167,0,0,0,0,0,0,0,0,0,0,0,0,0,0,0,0,0,0,0,0,0,0,0,0,0,0,0,0,0,0,0,0,0,0,0,0,0,0,0,0,0,0,0,0,0,0,0,0,0,0,0,0,0,
0,0,0,0,0,0,0,0,0,0,0,0,0,196,0,0,199,0,201,0,0,0,0,0,0,0,0,0,0,0,0,0,0,0,0,0,0,0,0,0,0,0,0,0,0,0,0,0,0,0,0,0,0,0,0,0,0,0,0,0,0,0,0,0,0,0,0,0,0,0,
0,0,0,0,0,0,0,0,0,0,0,0,0,0,0,0,0,0,0,0,0,0,0,0,0,0,0,0,0,0,0,0,0,0,0,0,0,0,0,0,0,0,0,0,0,0,0,0,0,0,0,0,0,0,0,0,0,0,0,0,0,0,0,0,0,0,0,0,0,0,
0,0,0,0,0,0,0,0,0,0,0,0,0,0,0,0,0,0,0,0,0,0,0,0,0,0,0,0,0,0,0,0,0,0,0,0,0,0,0,0,0,0,0,0,0,0,0,0,0,0,0,0,0,0,0,0,0,0,0,0,0,0,0,0,0,0,0,0,0,0,
0,0,0,0,0,0,0,0,0,0,0,0,0,0,0,0,0,0,0,0,0,0,0,0,0,0,0,0,0,0,0,0,0,0,0,0,0,0,0,0,0,0,0,0,0,0,0,0,0,0,0,0,0,0,0,0,0,0,0,0,0,0,0,0,0,0,0,0,0,0,
0,0,0,0,0,0,0,0,0,0,0,0,0,0,0,0,0,0,0,0,11,12,0,0,0,5,6,0,0,0,0,0,0,0,0,0,0,0,0,0,0,0,0,0,0,0,0,0,0,0,0,0,0,0,0,0,0,0,0,0,0,0,0,0,0,0,0,0,0,0,
0,0,0,0,0,0,0,0,0,0,0,0,0,0,0,0,0,0,0,42,43,44,45,0,36,37,38,45,0,0,0,0,0,0,0,0,0,0,0,0,0,0,0,0,0,0,0,0,0,0,0,0,0,0,0,0,0,0,0,0,0,0,0,0,0,0,0,0,0,0,
0,0,0,0,0,0,0,0,0,0,0,0,0,0,0,0,0,0,0,74,75,76,77,78,68,69,70,71,0,0,0,0,0,0,0,0,0,0,0,0,0,0,0,0,0,0,0,0,0,0,0,0,0,0,0,0,0,0,0,0,0,0,0,0,0,0,0,0,0,0,
0,0,0,0,0,0,0,0,0,0,0,0,0,0,0,0,0,0,0,106,107,108,109,110,100,101,102,103,0,0,0,0,0,0,0,0,0,0,0,0,0,0,0,0,0,0,0,0,0,0,0,0,0,0,0,0,0,0,0,0,0,0,0,0,0,0,0,0,0,0,
0,0,0,0,0,0,0,0,0,0,0,0,0,0,0,0,0,0,0,138,139,140,141,142,132,133,134,135,0,0,0,0,0,0,0,0,0,0,0,0,0,0,0,0,0,0,0,0,0,0,0,0,0,0,0,0,0,0,5,6,0,0,0,0,0,0,0,0,0,0,
0,0,0,0,0,0,0,0,0,0,0,0,0,0,0,0,0,0,0,170,0,0,173,174,164,0,0,167,0,0,0,0,0,0,0,0,0,0,0,0,0,0,0,0,0,0,0,0,0,0,0,0,0,0,0,0,0,36,37,38,39,0,0,0,0,0,0,0,0,0,
0,0,0,0,0,0,0,0,0,0,0,0,0,0,0,0,0,0,0,202,0,0,205,0,196,0,0,199,0,0,0,0,0,0,0,0,0,0,0,0,0,0,0,0,0,0,0,0,0,0,0,0,0,0,0,0,0,68,69,70,71,0,0,0,0,0,0,0,0,0,
0,0,0,0,0,0,0,0,0,0,0,0,0,0,0,0,0,0,0,0,0,0,0,0,0,0,0,0,0,0,0,0,0,0,0,0,0,0,0,0,0,0,0,0,0,0,0,0,0,0,0,0,0,0,0,0,0,100,101,102,103,0,0,0,0,0,0,0,0,0,
0,0,0,0,0,0,0,0,0,0,0,0,0,0,0,0,0,0,0,0,0,0,0,0,0,0,0,0,0,0,0,0,0,0,0,0,0,0,0,0,0,0,0,0,0,0,0,0,0,0,0,0,0,0,0,0,0,132,133,134,135,0,0,0,0,0,0,0,0,0,
0,0,0,0,0,0,0,0,0,0,0,0,0,0,0,0,0,0,0,0,0,0,0,0,0,0,0,0,0,0,0,0,0,0,0,0,0,0,0,0,0,0,0,0,0,0,0,0,0,0,0,0,0,0,0,0,0,164,0,0,167,0,0,0,0,0,0,0,0,0,
0,0,0,0,0,0,0,1610612937,0,0,0,0,0,0,0,0,0,0,0,0,0,0,0,0,0,0,0,0,0,0,0,0,0,0,0,0,0,0,0,0,0,0,0,0,2684354756,2684354724,2684354692,2684354660,2684354628,2684354596,0,0,0,0,0,0,0,196,0,0,199,0,201,0,0,0,0,0,0,0,
0,0,0,0,0,0,0,0,0,0,0,0,0,0,0,0,0,0,0,0,0,0,0,0,0,0,0,0,0,0,0,0,0,0,0,0,0,0,0,0,0,0,0,0,0,0,2684354693,2684354661,2684354629,2684354597,2684354565,0,0,0,0,0,0,0,0,0,0,0,0,0,0,0,0,0,0,0,
0,0,1610612775,1610612807,1610612839,1610612871,1610612903,1610612935,0,0,0,0,0,0,0,0,0,0,0,0,0,0,0,0,0,0,0,0,0,0,0,0,0,0,0,0,0,0,0,0,0,0,0,0,0,0,2684354694,2684354662,2684354630,2684354598,2684354566,0,0,0,0,0,0,0,0,0,0,0,0,0,0,0,0,0,0,0,
0,1610612742,1610612774,1610612806,1610612838,1610612870,0,0,0,0,0,0,0,0,0,0,0,0,0,0,0,0,0,0,0,0,0,0,0,0,0,0,0,0,0,0,0,0,0,0,0,0,0,0,2684354759,2684354727,2684354695,2684354663,2684354631,2684354599,0,0,0,0,0,0,0,0,0,0,0,0,0,0,0,0,0,0,0,0,
0,1610612741,1610612773,1610612805,1610612837,1610612869,0,0,0,0,0,0,0,0,0,0,0,0,0,0,0,0,0,0,0,0,0,0,0,0,0,0,0,0,0,0,0,0,0,0,0,0,0,0,0,0,0,0,0,0,0,0,0,0,0,0,0,0,0,0,0,0,0,0,0,0,0,0,0,0,
0,0,1610612772,1610612804,1610612836,1610612868,1610612900,1610612932,0,0,0,0,0,0,0,0,0,0,0,0,0,0,0,0,0,0,0,0,0,0,0,0,0,0,0,0,0,0,0,0,0,0,0,0,2684354761,0,0,0,0,0,0,0,0,0,0,0,0,0,0,0,0,0,0,0,0,0,0,0,0,0,
0,0,0,0,0,0,0,0,0,0,0,0,0,0,0,0,0,0,0,0,0,0,0,0,0,0,0,0,0,0,0,0,0,0,0,0,0,0,0,0,0,0,0,0,0,0,0,0,0,0,0,0,0,0,0,0,0,0,0,0,0,0,0,0,0,0,0,0,0,0,
0,0,0,0,0,0,0,0,0,0,0,0,0,0,0,0,0,0,0,0,0,0,0,0,0,0,0,0,0,0,0,0,0,0,0,0,0,0,0,0,0,0,0,0,0,0,0,0,0,0,0,0,0,0,0,0,0,0,0,0,0,0,0,0,0,0,0,0,0,0
</data>
  </layer>
 </group>
 <layer id="16" name="collision" width="70" height="40" visible="0">
  <data encoding="csv">
1025,1025,1025,1025,0,0,0,0,0,0,0,0,0,0,0,0,0,0,0,0,0,0,0,0,0,0,0,0,0,0,0,0,0,0,0,0,0,0,1025,0,0,0,0,0,0,0,0,1025,0,0,0,0,0,0,0,0,0,0,0,0,0,0,0,0,0,0,0,0,0,0,
1025,0,0,0,0,0,1025,1025,1025,1025,1025,0,0,0,0,0,0,0,0,0,0,0,0,0,0,0,1025,1025,1025,1025,0,0,0,0,0,0,0,0,0,1025,0,0,0,0,0,0,0,1025,1025,1025,1025,1025,1025,0,0,1025,1025,0,0,1025,1025,1025,0,0,1025,1025,0,0,0,0,
1025,0,0,0,0,1025,1025,0,0,0,0,1025,1025,1025,1025,1025,1025,1025,1025,1025,1025,1025,1025,1025,1025,1025,0,0,1025,0,1025,1025,1025,1025,1025,1025,1025,1025,1025,1025,0,0,0,0,0,0,0,0,0,0,0,0,0,1025,1025,0,0,1025,1025,0,0,0,1025,1025,0,0,1025,1025,0,0,
1025,0,0,0,0,1025,0,0,0,0,0,0,0,0,0,0,0,0,0,0,0,0,0,0,0,1025,0,0,1025,0,0,0,1025,1025,1025,1025,1025,1025,1025,0,0,0,0,0,0,0,0,0,0,0,0,0,0,0,0,0,0,0,0,0,0,0,0,0,0,0,0,1025,1025,0,
1025,0,0,0,1025,1025,0,0,0,0,0,0,0,0,0,0,0,0,1025,1025,1025,1025,0,0,0,1025,1025,1025,1025,0,0,0,1025,0,1025,1025,1025,1025,1025,0,0,0,0,0,0,0,0,0,0,0,0,0,0,0,0,0,0,0,0,0,0,0,0,0,0,0,1025,0,0,0,
0,0,0,1025,1025,0,0,0,0,0,0,0,0,0,0,0,0,0,1025,1025,1025,1025,0,0,0,1025,0,0,1025,0,0,0,1025,0,1025,1025,1025,1025,1025,0,0,0,0,0,0,0,0,0,0,0,0,0,0,0,0,0,0,0,0,0,0,0,0,0,0,0,1025,1025,1025,0,
0,0,1025,1025,0,0,0,2684355585,1025,1025,2684355585,0,0,0,0,0,0,0,0,0,0,0,0,0,0,1025,0,0,1025,0,0,0,1025,1025,1025,0,1025,1025,0,0,0,0,0,0,0,0,0,0,0,0,0,0,0,0,0,0,0,0,0,0,0,0,0,0,0,0,0,0,1025,1025,
0,1025,1025,0,0,0,0,2684355585,0,0,2684355585,0,0,0,0,0,0,0,0,0,0,0,0,0,0,0,0,0,0,0,0,0,0,0,0,0,0,0,0,0,0,0,0,0,0,0,0,0,0,0,0,0,0,0,0,0,0,0,0,0,0,0,0,0,0,0,0,0,0,1025,
0,1025,0,0,2684355585,2684355585,0,2684355585,0,0,2684355585,0,0,0,0,0,0,0,0,0,0,0,0,0,0,0,0,0,0,0,0,0,0,0,0,0,0,0,0,0,0,0,0,0,0,0,0,0,0,0,0,0,0,0,0,0,0,0,0,0,0,0,0,0,0,0,0,0,1025,1025,
0,1025,0,0,1025,1025,0,2684355585,0,0,2684355585,2684355585,2684355585,0,0,0,0,0,0,0,0,0,0,0,0,0,0,0,0,0,0,0,0,0,0,0,0,0,0,0,0,0,0,2684355585,2684355585,1025,1025,1025,1025,1025,2684355585,0,0,0,0,0,0,0,0,0,0,0,0,0,0,0,0,1025,1025,0,
0,1025,0,0,0,0,0,2684355585,1025,1025,2684355585,2684355585,2684355585,0,0,0,0,0,0,0,0,0,0,0,0,0,0,0,0,0,0,0,0,0,0,0,0,0,0,0,0,0,0,2684355585,0,1025,0,0,0,0,2684355585,0,0,0,0,0,0,0,0,0,0,0,0,0,0,0,0,1025,0,0,
0,1025,0,0,0,0,0,0,0,0,0,0,0,0,0,0,0,0,0,0,0,0,0,0,0,0,0,2684355585,2684355585,0,0,0,0,0,0,0,0,0,0,0,0,0,0,2684355585,0,1025,0,0,0,0,2684355585,0,0,0,0,0,0,0,0,0,0,0,0,0,0,0,0,1025,0,0,
0,1025,0,0,0,0,0,0,0,0,0,0,0,0,0,0,0,0,0,0,0,0,0,0,0,0,0,1025,1025,0,0,0,0,0,0,0,0,0,0,0,0,0,0,2684355585,0,1025,0,0,1025,0,2684355585,0,0,0,0,0,0,0,0,0,0,0,0,0,0,0,0,1025,0,0,
0,1025,0,0,0,0,0,0,0,0,0,0,0,0,0,0,0,0,0,0,0,0,0,0,0,0,0,0,0,0,0,0,0,0,0,0,0,0,0,0,0,0,0,2684355585,0,1025,1025,1025,1025,0,2684355585,0,0,0,0,0,0,0,0,0,0,0,0,0,0,0,0,1025,1025,0,
0,1025,0,0,0,0,0,0,0,0,0,0,0,0,0,0,0,0,0,0,0,0,0,0,0,0,0,0,2684355585,2684355585,0,0,0,0,0,0,0,0,0,0,0,0,0,2684355585,2684355585,0,0,0,0,0,2684355585,0,0,0,0,0,0,0,0,0,0,0,0,0,0,0,0,0,0,1025,
0,1025,0,0,0,0,0,0,0,0,0,0,0,1025,1025,1025,1025,0,0,0,0,0,0,0,0,0,0,0,1025,1025,0,0,0,0,0,0,0,0,0,0,0,0,0,0,0,2684355585,0,0,2684355585,2684355585,2684355585,0,0,0,0,0,0,0,0,0,0,0,0,0,0,0,0,0,0,1025,
0,1025,0,0,0,0,0,0,0,0,0,0,0,1025,0,0,1025,0,0,2684355585,2684355585,0,0,2684355585,2684355585,0,0,0,1025,1025,0,0,0,0,0,0,0,0,0,0,0,0,0,0,0,0,0,0,0,0,0,0,0,0,0,0,0,0,0,0,0,0,0,0,0,0,0,0,0,1025,
0,1025,0,0,0,0,0,2684355585,2684355585,0,0,0,0,1025,0,0,1025,0,0,1025,1025,0,0,1025,1025,0,0,0,0,0,0,0,0,0,0,0,0,0,0,0,0,0,0,2684355585,2684355585,0,0,0,0,0,0,0,0,0,0,0,0,0,0,0,0,0,0,0,0,0,0,1025,1025,1025,
0,1025,0,0,0,0,0,2684355585,0,2684355585,0,0,0,1025,1025,1025,1025,0,0,0,0,0,0,0,0,0,0,0,0,0,0,0,0,0,0,0,0,0,0,0,0,0,0,2684355585,2684355585,0,0,0,0,0,0,0,0,0,0,0,0,0,2684355585,2684355585,0,0,0,0,0,0,0,1025,0,0,
0,1025,0,0,0,0,0,2684355585,0,2684355585,0,0,0,0,0,0,0,0,0,0,0,0,0,0,0,0,0,0,0,0,0,0,0,0,0,0,0,0,0,0,0,0,0,0,0,0,0,0,0,0,0,0,0,0,0,0,0,0,1025,1025,0,0,0,0,0,0,0,1025,0,0,
0,1025,0,0,0,0,0,2684355585,0,2684355585,0,0,0,0,0,0,0,0,0,0,0,0,0,0,0,0,0,0,0,0,0,0,0,0,0,0,0,0,0,0,0,2684355585,2684355585,2684355585,2684355585,2684355585,2684355585,0,0,0,0,0,0,0,0,0,0,0,0,0,0,0,0,0,0,0,0,1025,0,0,
0,1025,0,0,0,0,0,2684355585,0,2684355585,0,0,0,0,0,0,0,0,0,0,0,0,0,0,0,0,0,0,0,2684355585,2684355585,0,0,0,0,0,0,0,0,0,0,2684355585,2684355585,2684355585,2684355585,2684355585,2684355585,0,0,0,0,0,0,0,0,0,0,0,0,0,0,0,0,0,0,0,0,1025,0,0,
0,1025,0,0,0,0,0,2684355585,2684355585,0,0,0,0,0,0,0,0,0,0,0,0,0,0,0,0,0,0,0,0,1025,1025,0,0,0,0,0,0,0,0,0,0,0,0,2684355585,2684355585,0,0,0,0,0,0,0,0,0,0,0,0,0,0,0,0,0,0,0,0,0,0,1025,0,0,
0,1025,0,0,1025,1025,0,0,0,0,0,0,0,0,0,0,0,0,0,0,0,0,0,0,0,0,0,0,0,1025,1025,0,0,0,0,0,0,0,0,0,0,0,0,2684355585,2684355585,0,0,0,0,0,0,0,0,0,0,0,0,0,0,0,0,0,0,0,0,0,0,1025,0,0,
0,1025,0,0,1025,1025,0,0,0,0,0,0,0,0,0,0,0,0,0,1025,1025,1025,1025,0,1025,1025,1025,1025,0,0,0,0,0,0,0,0,0,0,0,0,0,0,0,0,0,0,0,0,0,0,0,0,0,0,0,0,0,0,0,0,0,0,0,0,0,0,0,1025,0,0,
0,1025,0,0,0,0,0,0,0,0,0,0,0,0,0,0,0,0,0,1025,0,0,0,1025,0,0,0,1025,0,0,0,0,0,0,0,0,0,0,0,0,0,0,0,0,0,0,0,0,0,0,0,0,0,0,0,2684355585,2684355585,0,0,0,0,0,0,0,0,0,0,1025,0,0,
0,1025,0,0,0,0,0,0,0,0,0,0,0,0,0,0,0,0,0,1025,0,0,0,0,0,0,0,1025,0,0,0,0,0,0,0,0,0,0,0,0,0,0,0,0,0,0,0,0,0,0,0,0,0,0,0,1025,1025,0,0,0,0,0,0,0,0,0,0,1025,0,0,
0,1025,0,0,0,1025,1025,0,0,0,0,0,0,0,0,0,0,0,0,1025,0,0,0,1025,1025,0,0,1025,0,0,0,0,0,0,0,0,0,0,0,0,0,0,0,0,0,0,0,0,0,0,0,0,0,0,0,1025,1025,0,0,0,0,0,0,0,0,0,0,1025,0,0,
0,1025,0,0,0,1025,1025,0,0,0,0,0,0,0,0,0,0,0,0,1025,1025,1025,1025,0,1025,1025,1025,1025,0,0,0,0,0,0,0,0,0,0,0,0,0,0,0,0,0,0,0,0,0,0,0,0,0,0,0,0,0,1025,1025,1025,1025,0,0,0,0,0,0,1025,1025,0,
0,1025,0,0,0,0,0,0,0,0,0,0,0,0,0,0,0,0,0,0,0,0,0,0,0,0,0,0,0,0,0,0,0,0,0,0,0,0,0,0,0,0,0,0,0,0,0,0,0,2684355585,2684355585,0,0,0,0,2684355585,2684355585,0,0,0,0,2684355585,2684355585,0,0,0,0,0,1025,1025,
0,1025,0,0,0,0,0,0,0,0,0,0,0,0,0,0,0,0,0,0,0,0,0,0,0,0,0,0,0,0,0,2684355585,2684355585,2684355585,2684355585,2684355585,2684355585,0,0,0,0,0,0,0,0,0,0,0,0,1025,1025,0,0,0,0,1025,1025,0,0,0,0,1025,1025,0,0,0,0,0,0,1025,
0,1025,0,0,0,0,0,0,0,0,0,0,0,0,0,0,0,0,0,0,0,0,0,0,0,0,0,0,0,0,0,0,2684355585,0,0,0,2684355585,0,0,0,0,0,0,0,0,0,0,0,0,1025,1025,0,0,0,0,2684355585,2684355585,0,0,0,0,2684355585,2684355585,0,0,0,0,0,1025,1025,
1025,0,0,0,0,0,0,0,0,0,0,0,0,0,0,0,0,0,0,0,0,0,0,0,0,0,0,0,0,0,0,0,2684355585,0,0,0,0,2684355585,0,0,0,0,0,0,2684355585,2684355585,2684355585,2684355585,2684355585,0,0,0,0,0,0,1025,1025,1025,1025,1025,1025,1025,1025,0,0,0,0,1025,1025,0,
1025,0,0,0,0,0,0,0,0,0,0,0,0,0,0,0,0,0,0,0,0,0,0,0,0,0,0,0,0,0,0,0,2684355585,0,0,0,0,2684355585,0,0,0,0,0,0,1025,0,0,0,1025,0,0,0,0,0,0,0,0,0,0,0,0,0,0,0,0,0,0,1025,1025,0,
1025,0,0,1025,1025,1025,1025,1025,0,0,0,0,0,0,0,0,0,0,0,0,1025,1025,0,0,0,0,0,0,0,0,2684355585,2684355585,0,0,0,0,0,0,2684355585,0,0,0,0,0,1025,0,0,0,1025,0,0,0,0,0,0,1025,1025,1025,1025,1025,1025,1025,1025,1025,0,0,0,0,1025,0,
1025,0,0,1025,0,0,0,1025,0,0,0,0,0,0,0,0,0,0,0,0,1025,1025,0,0,0,0,0,0,0,0,0,0,2684355585,0,0,0,0,0,2684355585,0,0,0,0,0,2684355585,2684355585,2684355585,2684355585,2684355585,0,0,0,0,0,0,0,0,0,0,0,0,0,0,0,0,0,1025,1025,1025,0,
1025,0,0,1025,0,0,0,1025,0,0,0,0,0,0,0,0,0,0,0,0,0,0,0,0,0,0,0,0,0,0,0,0,2684355585,2684355585,2684355585,2684355585,2684355585,2684355585,0,0,0,0,0,0,0,0,0,0,0,0,0,0,0,0,0,0,0,0,0,0,0,0,0,0,0,1025,1025,0,0,0,
1025,0,0,1025,1025,1025,1025,1025,0,0,0,0,0,0,0,0,0,0,0,0,0,0,0,0,0,0,0,0,0,0,0,0,0,0,0,0,0,2684355585,0,0,0,0,0,0,0,0,0,0,0,0,0,0,0,0,0,0,0,0,0,0,0,0,0,0,1025,1025,0,0,0,0,
1025,0,0,0,0,0,0,0,0,0,0,0,0,0,0,0,0,0,0,0,0,0,0,0,0,0,0,0,0,0,0,0,0,1025,1025,1025,0,0,0,1025,0,1025,1025,0,0,0,0,0,0,0,0,0,0,0,0,0,0,0,0,0,0,0,0,0,1025,0,0,0,0,0,
1025,1025,1025,1025,1025,1025,1025,1025,1025,1025,1025,1025,1025,1025,1025,1025,1025,1025,1025,1025,1025,1025,1025,1025,1025,1025,1025,1025,1025,1025,1025,1025,1025,0,1025,1025,1025,1025,1025,0,1025,0,0,1025,1025,1025,1025,1025,1025,1025,1025,1025,1025,1025,1025,1025,1025,1025,1025,1025,1025,1025,1025,1025,1025,0,0,0,0,0
</data>
 </layer>
</map>
